!!!!SEGMENT: pl-cz--iii-743--001-007_zebrowski-marcin-jozef--magnificat-deposuit-potentes.krn
!!!cenid: 17xx:2338
!!!COM: Żebrowski, Marcin Józef
!!!COM-rismID: pe30020322
!!!CDT: 1702-1770/06/29
!!!CNT: Polish
!!!OPR: Magnificat
!!!OTL: Deposuit potentes
!!!OMV: 007
!!!PDT:
!!!AGN:
!!!SMS-siglum: PL-CZ
!!!SMS-shelfmark: III-743
!!!SMS-shelfwork: 001-007 M
!!!SMS-variant: Organo PL-CZ III-743:24-25
!!!SMS-altvar: Organo PL-CZ III-743:28-29
!!!NIFC-rismSourceID: 300033495
!!!NIFC-islandoraID: pl-cz:25228
!!!URL-pdf-islandora: https://repozytorium.nifc.pl/islandora/object/pl-cz%3A25228/datastream/PDF/view
!!!URL-scan: https://polish.musicsources.pl/pl/lokalizacje/galeria/rekopisy/1473 @EN{Scan on Polish Music Herritage in Open Access Website} @PL{Skany w portalu Dziedzictwo Muzyki Polskiej w otwartym dostępie}
!!!ONB-nifc: UWAGA: części Magnificatu: 1. Magnificat, 2. Et exultavit, 3. Quia respexit, 4. Quia fecit, 5. Et misericordia, 6. Fecit potentiam, 7. Deposuit potentes, 8. Esurientes implevit bonis, 9. Suscepit Israel, 10. Sicut locutus, 11. Gloria patri (razem z Sicut erat i Amen)
!!!OMD: Andante
!!!AIN: 1 alto 1 bass 2 cor 1 organ 1 soprn 1 tenor 1 viola 2 violn
!!!key: G
**kern	**fba	**dynam	**kern	**dynam	**kern	**dynam	**kern	**dynam	**kern	**kern	**kern	**text	**kern	**text	**kern	**dynam	**kern	**dynam
*part10	*part10	*part10	*part9	*part9	*part8	*part8	*part7	*part7	*part6	*part5	*part4	*part4	*part3	*part3	*part2	*part2	*part1	*part1
*staff10	*staff10	*	*staff9	*	*staff8	*	*staff7	*	*staff6	*staff5	*staff4	*staff4	*staff3	*staff3	*staff2	*	*staff1	*
*I"Baſso pro Organo.	*	*	*I"Viola Oblige:	*	*I"Violino Secondo.	*	*I"Violino Primo	*	*I"Baſso.	*I"Tenore.	*I"Alto.	*	*I"Canto.	*	*I"Cornuo Secondo. ex G	*	*I"Cornu Solo ex G:	*
*I'org	*	*	*I'vla	*	*I'vl 2	*	*I'vl 1	*	*I'B	*I'T	*I'A	*	*I'S	*	*I'cor 2 in G	*	*I'cor 1 in G	*
*Iorgan	*	*	*Iviola	*	*Ivioln	*	*Ivioln	*	*Ibass	*Itenor	*Ialto	*	*Isoprn	*	*Icor	*	*Icor	*
*ICklav	*	*	*ICstr	*	*ICstr	*	*ICstr	*	*ICvox	*ICvox	*ICvox	*	*ICvox	*	*ICbras	*	*ICbras	*
*clefF4	*	*	*clefC3	*	*clefG2	*	*clefG2	*	*clefF4	*clefC4	*clefC3	*	*clefC1	*	*clefG2	*	*clefG2	*
*	*	*	*	*	*	*	*	*	*	*	*	*	*	*	*ITrd3c5	*	*ITrd3c5	*
*k[f#]	*	*	*k[f#]	*	*k[f#]	*	*k[f#]	*	*k[f#]	*k[f#]	*k[f#]	*	*k[f#]	*	*k[f#]	*	*k[f#]	*
*G:	*	*	*G:	*	*G:	*	*G:	*	*G:	*G:	*G:	*	*G:	*	*G:	*	*G:	*
*M4/4	*	*	*M4/4	*	*M4/4	*	*M4/4	*	*M4/4	*M4/4	*M4/4	*	*M4/4	*	*M4/4	*	*M4/4	*
*met(c)	*	*	*met(c)	*	*met(c)	*	*met(c)	*	*met(c)	*met(c)	*met(c)	*	*met(c)	*	*met(c)	*	*met(c)	*
=1	=1	=1	=1	=1	=1	=1	=1	=1	=1	=1	=1	=1	=1	=1	=1	=1	=1	=1
!	!	!	!	!	!LO:TX:a:t=Andante	!	!LO:TX:a:i:t=Andante.	!	!	!	!	!	!LO:TX:a:t=13.	!	!	!	!LO:TX:b:t=Andante.	!
!LO:TX:b:t=andante	!	!	!LO:TX:a:t=Andante.	!	!LO:TX:b:i:t=Oboe Solo.	!	!LO:TX:a:i:t=Oboe Solo	!	!LO:TX:a:t=Deposuit  C Tacet	!LO:TX:a:t=Deposuit Duetto C\nTacet	!LO:TX:a:i:t=Andante.	!	!LO:TX:b:t=Andante.	!	!LO:TX:a:t=andante.	!	!	!
4GG/	.	.	4d\	.	8.gT/L	.	8.bt\L	.	1ryy	1ryy	00r	.	00r	.	2r	.	2r	.
.	.	.	.	.	16a/Jk	.	16cc\Jk	.	.	.	.	.	.	.	.	.	.	.
!LO:TX:b:t=solo.	!	!	!	!	!	!	!	!	!	!	!	!	!	!	!	!	!	!
4G\	.	.	4d\	.	16g|</LL	.	16b|>\LL	.	.	.	.	.	.	.	.	.	.	.
.	.	.	.	.	(16g/	.	(16b\	.	.	.	.	.	.	.	.	.	.	.
.	.	.	.	.	16a/	.	16cc\	.	.	.	.	.	.	.	.	.	.	.
.	.	.	.	.	16b/JJ)	.	16dd\JJ)	.	.	.	.	.	.	.	.	.	.	.
.	.	.	.	.	8qqa/	.	8qqcc/	.	.	.	.	.	.	.	.	.	.	.
4GG/	.	.	4d\	.	8.g/L	.	8.b\L	.	.	.	.	.	.	.	8.g\L	.	8.b\L	.
.	.	.	.	.	16a/Jk	.	16cc\Jk	.	.	.	.	.	.	.	16a\Jk	.	16cc\Jk	.
4r	.	.	4d\	.	4b/	.	4dd\	.	.	.	.	.	.	.	8g\L	.	8b\L	.
.	.	.	.	.	.	.	.	.	.	.	.	.	.	.	8b\J	.	8dd\J	.
!	!	!	!	!	!LO:LB:g=original	!	!	!	!	!	!	!	!	!	!	!	!	!
=2	=2	=2	=2	=2	=2	=2	=2	=2	=2	=2	=2	=2	=2	=2	=2	=2	=2	=2
.	.	.	.	.	.	.	.	.	.	.	.	.	.	.	8qqb/	.	8qqdd/	.
*	*	*	*	*	*	*	*	*	*	*	*	*	*	*	*2\right	*	*2\right	*
4d\	7	.	4f#\	.	(16a\LL	.	(16cc\LL	.	1ryy	1ryy	.	.	.	.	2a\	.	2cc\	.
*	*	*	*	*	*	*	*	*	*	*	*	*	*	*	*custos:cc	*	*	*
.	.	.	.	.	16cc\)	.	16ff#\)	.	.	.	.	.	.	.	.	.	.	.
.	.	.	.	.	(16ff#\	.	(16aa\	.	.	.	.	.	.	.	.	.	.	.
.	.	.	.	.	16ee\JJ)	.	16gg\JJ)	.	.	.	.	.	.	.	.	.	.	.
4D/	.	.	4f#\	.	(16dd\LL	.	16ff#\LL	.	.	.	.	.	.	.	.	.	.	.
.	.	.	.	.	16cc\)	.	16ee\	.	.	.	.	.	.	.	.	.	.	.
.	.	.	.	.	(16b\	.	16dd\	.	.	.	.	.	.	.	.	.	.	.
.	.	.	.	.	16a\JJ)	.	16cc\JJ	.	.	.	.	.	.	.	.	.	.	.
.	.	.	.	.	8qqa/	.	8qqcc/	.	.	.	.	.	.	.	.	.	.	.
!	!	!	!	!	!	!	!	!	!	!	!	!	!	!	!LO:LB:g=original	!	!	!
=-	=-	=-	=-	=-	=-	=-	=-	=-	=-	=-	=-	=-	=-	=-	=-	=-	=-	=-
4G\	.	.	4d\	.	8.g/L	.	8.b\L	.	.	.	.	.	.	.	8.g\L	.	8.b\L	.
.	.	.	.	.	16a/Jk	.	16cc\Jk	.	.	.	.	.	.	.	16a\Jk	.	16cc\Jk	.
4r	.	.	4r	.	4b/	.	4dd\	.	.	.	.	.	.	.	8g\L	.	8b\L	.
.	.	.	.	.	.	.	.	.	.	.	.	.	.	.	8b\J	.	8dd\J	.
=3	=3	=3	=3	=3	=3	=3	=3	=3	=3	=3	=3	=3	=3	=3	=3	=3	=3	=3
.	.	.	.	.	.	.	.	.	.	.	.	.	.	.	8qqb/	.	8qqdd/	.
4d\	7	.	4f#\	.	(16a\LL	.	(16cc\LL	.	1ryy	1ryy	.	.	.	.	2a\	.	2cc\	.
.	.	.	.	.	16cc\)	.	16ff#\)	.	.	.	.	.	.	.	.	.	.	.
.	.	.	.	.	(16ff#\	.	(16aa\	.	.	.	.	.	.	.	.	.	.	.
.	.	.	.	.	16ee\JJ)	.	16gg\JJ)	.	.	.	.	.	.	.	.	.	.	.
4D/	.	.	4f#\	.	(16dd\LL	.	(16ff#\LL	.	.	.	.	.	.	.	.	.	.	.
.	.	.	.	.	16cc\)	.	16ee\)	.	.	.	.	.	.	.	.	.	.	.
.	.	.	.	.	16b\	.	(16dd\	.	.	.	.	.	.	.	.	.	.	.
.	.	.	.	.	16a\JJ	.	16cc\JJ)	.	.	.	.	.	.	.	.	.	.	.
!	!	!	!	!	!	!	!	!	!	!	!	!	!	!	!LO:TX:t=P:problem=mixed beam	!	!LO:TX:t=P:problem=mixed beam	!
.	.	.	.	.	8qqa/	.	8qqcc/	.	.	.	.	.	.	.	.	.	.	.
[4GG/	.	.	4d\	.	8.g/L	.	8.b/L	.	.	.	.	.	.	.	8g\L	.	8b\L	.
.	.	.	.	.	.	.	.	.	.	.	.	.	.	.	16B/L	.	16d/L	.
.	.	.	.	.	16a/Jk	.	16a/Jk	.	.	.	.	.	.	.	16B/JJ	.	16d/JJ	.
!LO:TX:t=P:problem=mixed beam	!	!	!	!	!	!	!	!	!	!	!	!	!	!	!	!	!	!
16GG/LL]	.	.	4r	.	4b/	.	4g/	.	.	.	.	.	.	.	8B/L	.	8d/L	.
16G|>\	.	.	.	.	.	.	.	.	.	.	.	.	.	.	.	.	.	.
16D|>\	.	.	.	.	.	.	.	.	.	.	.	.	.	.	8B/J	.	8d/J	.
16BB|>\JJ	.	.	.	.	.	.	.	.	.	.	.	.	.	.	.	.	.	.
=4	=4	=4	=4	=4	=4	=4	=4	=4	=4	=4	=4	=4	=4	=4	=4	=4	=4	=4
4GG/	.	.	8r	.	8r	.	[4dd\	.	1ryy	1ryy	.	.	.	.	4B/	.	4d/	.
!	!	!	!	!LO:DY:b:t=pia	!	!LO:DY:b:t=po.	!	!	!	!	!	!	!	!	!	!	!	!
.	.	.	8g\L	p	8b/L	p	.	.	.	.	.	.	.	.	.	.	.	.
4r	.	.	8f#\	.	8a/	.	16dd\LL]	.	.	.	.	.	.	.	4r	.	4r	.
!	!	!	!	!	!	!	!	!LO:DY:b:t=po.	!	!	!	!	!	!	!	!	!	!
.	.	.	.	.	.	.	16cc#X\	p	.	.	.	.	.	.	.	.	.	.
.	.	.	8g\J	.	8b/J	.	16dd\	.	.	.	.	.	.	.	.	.	.	.
.	.	.	.	.	.	.	16ee\JJ	.	.	.	.	.	.	.	.	.	.	.
.	.	.	.	.	.	.	8qqee/	.	.	.	.	.	.	.	.	.	.	.
2r	.	.	8r	.	8r	.	[4dd\	.	.	.	.	.	.	.	2r	.	2r	.
.	.	.	8g\L	.	8b/L	.	.	.	.	.	.	.	.	.	.	.	.	.
.	.	.	8f#\	.	8a/	.	16dd\LL]	.	.	.	.	.	.	.	.	.	.	.
.	.	.	.	.	.	.	16cc#X\	.	.	.	.	.	.	.	.	.	.	.
.	.	.	8g\J	.	8b/J	.	16ee\	.	.	.	.	.	.	.	.	.	.	.
.	.	.	.	.	.	.	16dd\JJ	.	.	.	.	.	.	.	.	.	.	.
=5	=5	=5	=5	=5	=5	=5	=5	=5	=5	=5	=5	=5	=5	=5	=5	=5	=5	=5
!	!	!	!	!LO:DY:b:t=for	!	!	!	!LO:DY:b:t=for	!	!	!	!	!	!	!	!	!	!
4G\	.	.	4d\	f	8.b\L	.	8.dd\L	f	1ryy	1ryy	00r	.	00r	.	4b\	.	8dd\	.
.	.	.	.	.	.	.	.	.	.	.	.	.	.	.	.	.	4dd\	.
.	.	.	.	.	16gg\Jk	.	16bb\Jk	.	.	.	.	.	.	.	.	.	.	.
4A\	6 4	.	4A/	.	8ff#\L	.	8aa\L	.	.	.	.	.	.	.	4a\	.	.	.
!	!	!	!	!	!	!	!	!	!	!	!	!	!	!	!	!	!LO:TX:a:t=t.	!
.	7 #	.	.	.	8ee\J	.	8gg\J	.	.	.	.	.	.	.	.	.	8cc#X\	.
.	.	.	.	.	8qqee/	.	8qqgg/	.	.	.	.	.	.	.	.	.	.	.
[4D\	.	.	4A/	.	8.ddT\L	.	8.ff#\L	.	.	.	.	.	.	.	4a\	.	4dd\	.
.	.	.	.	.	16ee\Jk	.	16ee\Jk	.	.	.	.	.	.	.	.	.	.	.
16D\LL]	.	.	4r	.	4ff#\	.	4dd\	.	.	.	.	.	.	.	4r	.	4r	.
16A|>\	.	.	.	.	.	.	.	.	.	.	.	.	.	.	.	.	.	.
16F#|>\	.	.	.	.	.	.	.	.	.	.	.	.	.	.	.	.	.	.
16D|>\JJ	.	.	.	.	.	.	.	.	.	.	.	.	.	.	.	.	.	.
!LO:LB:g=original	!	!	!LO:LB:g=original	!	!	!	!LO:LB:g=original	!	!	!	!	!	!	!	!	!	!LO:LB:g=original	!
=6	=6	=6	=6	=6	=6	=6	=6	=6	=6	=6	=6	=6	=6	=6	=6	=6	=6	=6
!	!	!	!	!	!	!	!	!	!	!	!	!	!	!	!LO:TX:a:t=3.	!	!LO:TX:a:t=3.	!
4E\	.	.	8r	.	8r	.	[4b/	.	1ryy	1ryy	.	.	.	.	0r	.	0r	.
!	!	!	!	!LO:DY:b:t=pia	!	!	!	!	!	!	!	!	!	!	!	!	!	!
.	.	.	8e\L	p	8g/L	.	.	.	.	.	.	.	.	.	.	.	.	.
4r	.	.	8d#X\	.	8f#/	.	16b/LL]	.	.	.	.	.	.	.	.	.	.	.
!	!	!	!	!	!	!	!	!LO:DY:b:t=po.	!	!	!	!	!	!	!	!	!	!
.	.	.	.	.	.	.	16a/	p	.	.	.	.	.	.	.	.	.	.
.	.	.	8e\J	.	8g/J	.	(16cc/	.	.	.	.	.	.	.	.	.	.	.
.	.	.	.	.	.	.	16b/JJ)	.	.	.	.	.	.	.	.	.	.	.
.	.	.	.	.	.	.	8qqcc/	.	.	.	.	.	.	.	.	.	.	.
2r	.	.	8r	.	8r	.	[4b/	.	.	.	.	.	.	.	.	.	.	.
.	.	.	8e\L	.	8g/L	.	.	.	.	.	.	.	.	.	.	.	.	.
.	.	.	8d#\	.	8f#/	.	16b/LL]	.	.	.	.	.	.	.	.	.	.	.
.	.	.	.	.	.	.	16a/	.	.	.	.	.	.	.	.	.	.	.
.	.	.	8e\J	.	8g/J	.	(16cc/	.	.	.	.	.	.	.	.	.	.	.
.	.	.	.	.	.	.	16b/JJ)	.	.	.	.	.	.	.	.	.	.	.
!	!	!	!	!	!LO:LB:g=original	!	!	!	!	!	!	!	!	!	!	!	!	!
=7	=7	=7	=7	=7	=7	=7	=7	=7	=7	=7	=7	=7	=7	=7	=7	=7	=7	=7
!	!	!	!	!LO:DY:b:t=for	!	!	!	!LO:DY:b:t=for	!	!	!	!	!	!	!	!	!	!
4E\	.	.	4B/	f	8.g\L	.	8.b\L	f	1ryy	1ryy	.	.	.	.	.	.	.	.
.	.	.	.	.	16ee\Jk	.	16gg\Jk	.	.	.	.	.	.	.	.	.	.	.
.	.	.	.	.	8qqee/	.	8qqgg/	.	.	.	.	.	.	.	.	.	.	.
4F#\	6 4	.	4F#/	.	8dd\L	.	8ff#\L	.	.	.	.	.	.	.	.	.	.	.
.	7 #	.	.	.	8cc#X\J	.	8ee\J	.	.	.	.	.	.	.	.	.	.	.
.	.	.	.	.	8qqcc#/	.	8qqee/	.	.	.	.	.	.	.	.	.	.	.
[4BB/	.	.	4F#/	.	8.b\L	.	8.ddT\L	.	.	.	.	.	.	.	.	.	.	.
.	.	.	.	.	16cc#X\Jk	.	16cc#X\Jk	.	.	.	.	.	.	.	.	.	.	.
16BB/LL]	.	.	4r	.	4dd\	.	4b/	.	.	.	.	.	.	.	.	.	.	.
16F#|</	.	.	.	.	.	.	.	.	.	.	.	.	.	.	.	.	.	.
16D|</	.	.	.	.	.	.	.	.	.	.	.	.	.	.	.	.	.	.
16BB|</JJ	.	.	.	.	.	.	.	.	.	.	.	.	.	.	.	.	.	.
=8	=8	=8	=8	=8	=8	=8	=8	=8	=8	=8	=8	=8	=8	=8	=8	=8	=8	=8
4C/	.	.	8r	.	8r	.	[4g/	.	1ryy	1ryy	.	.	.	.	1r	.	1r	.
!	!	!	!	!LO:DY:b:t=pia&colon;	!	!	!	!	!	!	!	!	!	!	!	!	!	!
.	.	.	8c/L	p	8e/L	.	.	.	.	.	.	.	.	.	.	.	.	.
4r	.	.	8B/	.	8d/	.	16g/LL]	.	.	.	.	.	.	.	.	.	.	.
!	!	!	!	!	!	!	!	!LO:DY:b:t=po.	!	!	!	!	!	!	!	!	!	!
.	.	.	.	.	.	.	16f#/	p	.	.	.	.	.	.	.	.	.	.
.	.	.	8c/J	.	8e/J	.	16a/	.	.	.	.	.	.	.	.	.	.	.
.	.	.	.	.	.	.	16g/JJ	.	.	.	.	.	.	.	.	.	.	.
.	.	.	.	.	.	.	8qqa/	.	.	.	.	.	.	.	.	.	.	.
2r	.	.	8r	.	8r	.	[4g/	.	.	.	.	.	.	.	.	.	.	.
.	.	.	8c/L	.	8e/L	.	.	.	.	.	.	.	.	.	.	.	.	.
.	.	.	8B/	.	8d/	.	16g/LL]	.	.	.	.	.	.	.	.	.	.	.
.	.	.	.	.	.	.	16f#/	.	.	.	.	.	.	.	.	.	.	.
.	.	.	8c/J	.	8e/J	.	(16a/	.	.	.	.	.	.	.	.	.	.	.
.	.	.	.	.	.	.	16g/JJ)	.	.	.	.	.	.	.	.	.	.	.
=9	=9	=9	=9	=9	=9	=9	=9	=9	=9	=9	=9	=9	=9	=9	=9	=9	=9	=9
!	!	!	!	!LO:DY:b:t=fr	!LO:TX:t=P:problem=mixed beam	!	!LO:TX:t=P:problem=mixed beam	!LO:DY:b:t=for	!	!	!	!	!	!	!	!	!	!
4C/	.	.	4G/	f	8.e/L	.	8.g/L	f	1ryy	1ryy	00r	.	00r	.	4r	.	4r	.
.	.	.	.	.	16cc\Jk	.	16ee\Jk	.	.	.	.	.	.	.	.	.	.	.
.	.	.	.	.	8qqcc/	.	8qqee/	.	.	.	.	.	.	.	.	.	.	.
4D/	6 4	.	4D/	.	8b\L	.	8dd\L	.	.	.	.	.	.	.	8b\L	.	8dd\L	.
.	7 3	.	.	.	8aa\J	.	8ccc\J	.	.	.	.	.	.	.	8a\J	.	8cc\J	.
8r	.	.	8r	.	8.ggT\L	.	8.bbt\L	.	.	.	.	.	.	.	(4g\	.	(4b\	.
8G\L	.	.	8d\L	.	.	.	.	.	.	.	.	.	.	.	.	.	.	.
.	.	.	.	.	32ff#\LL	.	32aa\LL	.	.	.	.	.	.	.	.	.	.	.
.	.	.	.	.	32gg\JJJ	.	32bb\JJJ	.	.	.	.	.	.	.	.	.	.	.
8F#\	6 5	.	8d\	.	8.aaT\L	.	8.cccT\L	.	.	.	.	.	.	.	8a\L)	.	8cc\L)	.
8d\J	.	.	8f#\J	.	.	.	.	.	.	.	.	.	.	.	8d|>\J	.	8a|>\J	.
.	.	.	.	.	32gg\LL	.	(32bb\LL	.	.	.	.	.	.	.	.	.	.	.
.	.	.	.	.	32ff#\JJJ	.	32aa\JJJ)	.	.	.	.	.	.	.	.	.	.	.
=10	=10	=10	=10	=10	=10	=10	=10	=10	=10	=10	=10	=10	=10	=10	=10	=10	=10	=10
8r	.	.	8r	.	8.ggT\L	.	8.bbt\L	.	1ryy	1ryy	.	.	.	.	(4g\	.	(4b\	.
8G\L	.	.	8d\L	.	.	.	.	.	.	.	.	.	.	.	.	.	.	.
.	.	.	.	.	(32ff#\LL	.	32aa\LL	.	.	.	.	.	.	.	.	.	.	.
.	.	.	.	.	32gg\JJJ)	.	32bb\JJJ	.	.	.	.	.	.	.	.	.	.	.
8F#\	6 5	.	8d\	.	8.aaT\L	.	8.cccT\L	.	.	.	.	.	.	.	8a\L)	.	8cc\L)	.
8d\J	.	.	8f#\J	.	.	.	.	.	.	.	.	.	.	.	8d|>\J	.	8a|>\J	.
.	.	.	.	.	(32gg\LL	.	(32bb\LL	.	.	.	.	.	.	.	.	.	.	.
.	.	.	.	.	32ff#\JJJ)	.	32aa\JJJ)	.	.	.	.	.	.	.	.	.	.	.
!LO:TX:t=P:problem=mixed beam	!	!	!	!	!	!	!LO:TUP:a:problem=klamra łukowa	!	!	!	!	!	!	!	!	!	!	!
8G\L	.	.	8d\L	.	8gg\	.	24bb\LL	.	.	.	.	.	.	.	8g\	.	8b\	.
.	.	.	.	.	.	.	24aa\	.	.	.	.	.	.	.	.	.	.	.
.	.	.	.	.	.	.	24gg\JJ	.	.	.	.	.	.	.	.	.	.	.
!	!	!	!	!	!	!	!LO:TUP:a:problem=klamra łukowa	!	!	!	!	!	!	!	!	!	!	!
.	.	.	.	.	.	.	8qqff#/	.	.	.	.	.	.	.	.	.	.	.
8c\	.	.	8e\	.	4g/	.	24ee\LL	.	.	.	.	.	.	.	8r	.	8r	.
.	.	.	.	.	.	.	24dd\	.	.	.	.	.	.	.	.	.	.	.
.	.	.	.	.	.	.	24cc\JJ	.	.	.	.	.	.	.	.	.	.	.
!	!	!	!	!	!	!	!	!	!	!	!	!	!	!	!LO:TX:t=P:problem=mixed beam	!	!	!
8d\	6 4	.	8d\	.	.	.	8b/L	.	.	.	.	.	.	.	8g\L	.	8b\L	.
!	!	!	!	!	!	!	!	!	!	!	!	!	!	!	!	!	!LO:TX:a:t=t.	!
8D/J	7 3	.	8d\J	.	8f#t/	.	8aT/J	.	.	.	.	.	.	.	8d/J	.	8a\J	.
!	!	!	!	!	!	!	!LO:LB:g=original	!	!	!	!	!	!	!	!LO:LB:g=original	!	!	!
=11	=11	=11	=11	=11	=11	=11	=11	=11	=11	=11	=11	=11	=11	=11	=11	=11	=11	=11
8G|>\L	.	.	4d\	.	16g|</LL	.	16g|>\LL	.	1ryy	1ryy	.	.	.	.	4B/	.	4g\	.
.	.	.	.	.	(32b/L	.	(32gg\L	.	.	.	.	.	.	.	.	.	.	.
.	.	.	.	.	32cc/J)	.	32aa\J)	.	.	.	.	.	.	.	.	.	.	.
8G|>\	.	.	.	.	16b|</	.	16gg|>\	.	.	.	.	.	.	.	.	.	.	.
.	.	.	.	.	16b|</JJ	.	16gg|>\JJ	.	.	.	.	.	.	.	.	.	.	.
8F#|>\	4 2	.	4r	.	[4bt/	.	[4ggT\	.	.	.	.	.	.	.	16r	.	16r	.
.	.	.	.	.	.	.	.	.	.	.	.	.	.	.	(32g\LLL	.	(32b\LLL	.
.	.	.	.	.	.	.	.	.	.	.	.	.	.	.	32a\J)	.	32cc\J)	.
8F#|>\J	.	.	.	.	.	.	.	.	.	.	.	.	.	.	16g|>\	.	16b|>\	.
.	.	.	.	.	.	.	.	.	.	.	.	.	.	.	16g|>\JJ	.	16b|>\JJ	.
!	!	!	!	!	!	!	!	!	!	!	!	!	!	!	!LO:TX:a:t=t.	!	!LO:TX:a:t=t.	!
8E\L	5	.	8g\L	.	16b|</LL]	.	16gg\LL]	.	.	.	.	.	.	.	[4g\	.	[4b\	.
.	.	.	.	.	(32b/L	.	32gg\L	.	.	.	.	.	.	.	.	.	.	.
.	.	.	.	.	32cc/J)	.	32aa\J	.	.	.	.	.	.	.	.	.	.	.
8E\	.	.	8g\	.	16b|</	.	16gg|>\	.	.	.	.	.	.	.	.	.	.	.
.	.	.	.	.	16b|</JJ	.	16gg|>\JJ	.	.	.	.	.	.	.	.	.	.	.
!	!	!	!	!	!	!	!LO:N:vis=4.	!	!	!	!	!	!	!	!	!	!	!
8D\	4 3	.	8f#\	.	4bt/	.	4ggT\	.	.	.	.	.	.	.	16g\LL]	.	16b\LL]	.
.	.	.	.	.	.	.	.	.	.	.	.	.	.	.	(32g\L	.	(32b\L	.
.	.	.	.	.	.	.	.	.	.	.	.	.	.	.	32a\J)	.	32cc\J)	.
!LO:TX:b:i:t=Volti subito	!	!	!	!	!	!	!	!	!	!	!	!	!	!	!	!	!	!
8D\J	.	.	8f#\J	.	.	.	.	.	.	.	.	.	.	.	16g|>\	.	16b|>\	.
.	.	.	.	.	.	.	.	.	.	.	.	.	.	.	16g|>\JJ	.	16b|>\JJ	.
!LO:PB:g=original	!	!	!	!	!LO:LB:g=original	!	!	!	!	!	!	!	!	!	!	!	!	!
=12	=12	=12	=12	=12	=12	=12	=12	=12	=12	=12	=12	=12	=12	=12	=12	=12	=12	=12
.	.	.	.	.	16qqcc/LL	.	16qqaa/LL	.	.	.	.	.	.	.	.	.	.	.
!LO:TX:t=P:problem=mixed beam	!	!	!	!	!	!	!	!	!	!	!	!	!	!	!	!	!	!
.	.	.	.	.	16qqdd/JJ	.	16qqbb/JJ	.	.	.	.	.	.	.	.	.	.	.
8C\L	6	.	8e\L	.	8.eeT\L	.	8.cccT\L	.	1ryy	1ryy	.	.	.	.	(4a\	.	(4cc\	.
8A\	.	.	8e\	.	.	.	.	.	.	.	.	.	.	.	.	.	.	.
.	.	.	.	.	(32dd\LL	.	(32bb\LL	.	.	.	.	.	.	.	.	.	.	.
.	.	.	.	.	32cc\JJJ)	.	32aa\JJJ)	.	.	.	.	.	.	.	.	.	.	.
!	!	!	!	!	!	!	!	!	!	!	!	!	!	!	!LO:TX:t=P:problem=mixed beam	!	!	!
8d\	6 4	.	8d\	.	8b/L	.	8gg\L	.	.	.	.	.	.	.	8g\L)	.	8b\L)	.
!	!	!	!	!	!	!	!	!	!	!	!	!	!	!	!	!	!LO:TX:a:t=t.	!
8D/J	5 3	.	8d\J	.	8aT/J	.	8ff#t\J	.	.	.	.	.	.	.	8d/J	.	8a\J	.
.	.	.	.	.	.	.	.	.	.	.	.	.	.	.	8qqd/	.	8qqa/	.
!	!	!LO:DY:b:t=pia&colon;	!	!	!	!	!	!LO:DY:b:t=po.	!	!	!	!	!	!	!	!	!	!
8G\L	.	p	4d\	.	16b|</LL	.	16gg|>\LL	p	.	.	.	.	.	.	4g\	.	4b\	.
.	.	.	.	.	(32b/L	.	(32gg\L	.	.	.	.	.	.	.	.	.	.	.
.	.	.	.	.	32cc/J)	.	32aa\J)	.	.	.	.	.	.	.	.	.	.	.
16.G\L	.	.	.	.	16b|</	.	16gg|>\	.	.	.	.	.	.	.	.	.	.	.
.	.	.	.	.	16b|</JJ	.	16gg|>\JJ	.	.	.	.	.	.	.	.	.	.	.
32G\JJk	.	.	.	.	.	.	.	.	.	.	.	.	.	.	.	.	.	.
!	!	!	!	!	!	!	!	!	!	!	!	!	!	!	!	!	!	!LO:DY:b:t=pia.
8F#\L	4 2	.	4r	.	[4bt/	.	[4ggT\	.	.	.	.	.	.	.	16r	.	16r	p
!	!	!	!	!	!	!	!	!	!	!	!	!	!	!	!	!LO:DY:b:t=pian	!	!
.	.	.	.	.	.	.	.	.	.	.	.	.	.	.	(32g\LLL	p	(32b\LLL	.
.	.	.	.	.	.	.	.	.	.	.	.	.	.	.	32a\J)	.	32cc\J)	.
16.F#\L	.	.	.	.	.	.	.	.	.	.	.	.	.	.	16g|>\	.	16b|>\	.
.	.	.	.	.	.	.	.	.	.	.	.	.	.	.	16g|>\JJ	.	16b|>\JJ	.
32F#\JJk	.	.	.	.	.	.	.	.	.	.	.	.	.	.	.	.	.	.
=13	=13	=13	=13	=13	=13	=13	=13	=13	=13	=13	=13	=13	=13	=13	=13	=13	=13	=13
!	!	!	!	!LO:DY:b:t=pia	!	!	!	!	!	!	!	!	!	!	!LO:TX:a:t=t.	!	!LO:TX:a:t=t.	!
8E\L	5	.	8g\L	p	16b|</LL]	.	16gg\LL]	.	1ryy	1ryy	1r	.	1r	.	[4g\	.	[4b\	.
.	.	.	.	.	32b/L	.	(32gg\L	.	.	.	.	.	.	.	.	.	.	.
.	.	.	.	.	32cc/J	.	32aa\J)	.	.	.	.	.	.	.	.	.	.	.
16.E\L	.	.	8g\	.	16b|</	.	16gg|>\	.	.	.	.	.	.	.	.	.	.	.
.	.	.	.	.	16b|</JJ	.	16gg|>\JJ	.	.	.	.	.	.	.	.	.	.	.
32E\JJk	.	.	.	.	.	.	.	.	.	.	.	.	.	.	.	.	.	.
8D\L	6 4 3	.	8f#\	.	4bt/	.	4ggT\	.	.	.	.	.	.	.	16g\LL]	.	16b\LL]	.
.	.	.	.	.	.	.	.	.	.	.	.	.	.	.	(32g\L	.	(32b\L	.
.	.	.	.	.	.	.	.	.	.	.	.	.	.	.	32a\J)	.	32cc\J)	.
16.D\L	.	.	8f#\J	.	.	.	.	.	.	.	.	.	.	.	16g|>\	.	16b|>\	.
.	.	.	.	.	.	.	.	.	.	.	.	.	.	.	16g|>\JJ	.	16b|>\JJ	.
32D\JJk	.	.	.	.	.	.	.	.	.	.	.	.	.	.	.	.	.	.
.	.	.	.	.	(16qqa/LL	.	(<16qqcc/LL	.	.	.	.	.	.	.	.	.	.	.
.	.	.	.	.	16qqb/JJ)	.	16qqdd/JJ	.	.	.	.	.	.	.	.	.	.	.
!	!	!LO:DY:b:t=for	!	!LO:DY:b:t=for	!	!	!	!	!	!	!	!	!	!	!	!LO:DY:b:t=for	!	!LO:DY:b:t=for
8C/L	6	f	8e\L	f	8.cc\L	.	8.ee\L)	.	.	.	.	.	.	.	(4a\	f	(4cc\	f
8AA/	.	.	8e\	.	.	.	.	.	.	.	.	.	.	.	.	.	.	.
.	.	.	.	.	(32b\LL	.	(32dd\LL	.	.	.	.	.	.	.	.	.	.	.
.	.	.	.	.	32a\JJJ)	.	32cc\JJJ)	.	.	.	.	.	.	.	.	.	.	.
!	!	!	!	!	!	!	!	!	!	!	!	!	!	!	!LO:TX:t=P:problem=mixed beam	!	!	!
8D/	6 4	.	8d\	.	8g/L	.	8bt/L	.	.	.	.	.	.	.	8g\L)	.	8b\L)	.
!	!	!	!	!	!	!	!	!	!	!	!	!	!	!	!	!	!LO:TX:a:t=t.	!
8DD/J	5 3	.	8d\J	.	8f#t/J	.	8a/J	.	.	.	.	.	.	.	8d|</J	.	8a\J	.
!	!	!	!LO:LB:g=original	!	!	!	!	!	!	!	!	!	!	!	!	!	!	!
=14	=14	=14	=14	=14	=14	=14	=14	=14	=14	=14	=14	=14	=14	=14	=14	=14	=14	=14
!	!	!	!	!	!	!	!	!	!	!	!LO:TX:a:i:t=Solo.	!	!LO:TX:a:i:t=Solo.	!	!	!	!	!
4GG/	.	.	4d\	.	8g|</L	.	8g|</L	.	1ryy	1ryy	2r	.	2r	.	4B/	.	4g\	.
.	.	.	.	.	8d|</J	.	8d|</J	.	.	.	.	.	.	.	.	.	.	.
4r	.	.	4r	.	4g/	.	4g/	.	.	.	.	.	.	.	4r	.	4r	.
!	!	!	!	!	!	!	!	!	!	!	!	!	!	!	!	!	!LO:LB:g=original	!
=-	=-	=-	=-	=-	=-	=-	=-	=-	=-	=-	=-	=-	=-	=-	=-	=-	=-	=-
!	!	!LO:DY:b:t=pia	!	!LO:DY:b:t=pia&colon;	!	!	!	!	!	!	!	!	!	!	!	!LO:DY:b:t=pian	!	!LO:DY:b:t=pia&colon;
4GG/	.	p	4d\	p	2r	.	2r	.	.	.	8.g\L	De-	(8.b\L	De-	4b\	p	4dd\	p
.	.	.	.	.	.	.	.	.	.	.	16a\K	.	16cc\K)	.	.	.	.	.
4G\	.	.	4d\	.	.	.	.	.	.	.	8g\	.	8b\	.	4r	.	4r	.
!	!	!	!	!	!	!	!	!	!	!	!	!	!LO:TX:b:t=d	!	!	!	!	!
.	.	.	.	.	.	.	.	.	.	.	8b\J	.	8dd|>\J	.	.	.	.	.
=15	=15	=15	=15	=15	=15	=15	=15	=15	=15	=15	=15	=15	=15	=15	=15	=15	=15	=15
.	.	.	.	.	.	.	.	.	.	.	8qqa/	.	8qqcc/	.	.	.	.	.
4GG/	.	.	4d\	.	8.g/L	.	8.b\L	.	1ryy	1ryy	8.g\	-po-	8.b\	-po-	4b\	.	4dd\	.
!	!	!	!	!	!	!LO:DY:b:t=pia&colon;	!	!	!	!	!	!	!	!	!	!	!	!
.	.	.	.	.	16a/Jk	p	16cc\Jk	.	.	.	16a\	-su-	16cc\	-su-	.	.	.	.
4r	.	.	4r	.	16g|</LL	.	16b|>\LL	.	.	.	4b\	-it	4dd\	-it	4r	.	4r	.
.	.	.	.	.	(16g/	.	(16b\	.	.	.	.	.	.	.	.	.	.	.
.	.	.	.	.	16a/	.	16cc\	.	.	.	.	.	.	.	.	.	.	.
.	.	.	.	.	16b/JJ)	.	16dd\JJ)	.	.	.	.	.	.	.	.	.	.	.
!	!	!	!	!	!	!	!	!	!	!	!	!	!	!	!LO:LB:g=original	!	!	!
=-	=-	=-	=-	=-	=-	=-	=-	=-	=-	=-	=-	=-	=-	=-	=-	=-	=-	=-
.	.	.	.	.	.	.	.	.	.	.	8qqb/	.	8qqdd/	.	8qqb/	.	8qqdd/	.
*	*	*	*	*	*	*	*	*	*	*	*2\right	*	*2\right	*	*	*	*	*
4d\	7	.	4f#\	.	(16a\LL	.	(16cc\LL	.	.	.	2a\	Po-	2cc\	Po-	4.a\	.	4.cc\	.
.	.	.	.	.	16cc\)	.	16ff#\)	.	.	.	.	.	.	.	.	.	.	.
.	.	.	.	.	(16ff#\	.	(16aa\	.	.	.	.	.	.	.	.	.	.	.
.	.	.	.	.	16ee\JJ)	.	16gg\JJ)	.	.	.	.	.	.	.	.	.	.	.
4D/	.	.	4f#\	.	(16dd\LL	.	(16ff#\LL	.	.	.	.	.	.	.	.	.	.	.
.	.	.	.	.	16cc\)	.	16ee\)	.	.	.	.	.	.	.	.	.	.	.
.	.	.	.	.	(16b\	.	(16dd\	.	.	.	.	.	.	.	8a\	.	8cc\	.
.	.	.	.	.	16a\JJ)	.	16cc\JJ)	.	.	.	.	.	.	.	.	.	.	.
!	!	!	!	!	!LO:LB:g=original	!	!LO:LB:g=original	!	!	!	!	!	!	!	!	!	!	!
=16	=16	=16	=16	=16	=16	=16	=16	=16	=16	=16	=16	=16	=16	=16	=16	=16	=16	=16
4G\	.	.	4d\	.	8.g/L	.	8.b\L	.	1ryy	1ryy	8.g\L	-ten-	8.b\L	-ten-	4g\	.	4b\	.
.	.	.	.	.	16a/Jk	.	16cc\Jk	.	.	.	16a\Jk	.	16cc\Jk	.	.	.	.	.
4r	.	.	4r	.	16g|</LL	.	16b|>\LL	.	.	.	4b\	-tes	4dd\	-tes	8r	.	8r	.
.	.	.	.	.	(16g/	.	(16b\	.	.	.	.	.	.	.	.	.	.	.
.	.	.	.	.	16a/	.	16cc\	.	.	.	.	.	.	.	8b\	.	8dd\	.
.	.	.	.	.	16b/JJ)	.	16dd\JJ)	.	.	.	.	.	.	.	.	.	.	.
.	.	.	.	.	.	.	.	.	.	.	8qqb/	.	8qqdd/	.	8qqb/	.	.	.
4d\	7	.	4f#\	.	(16a\LL	.	(16cc\LL	.	.	.	2a\	de	2cc\	de	4a\	.	4cc\	.
.	.	.	.	.	16cc\)	.	16ff#\)	.	.	.	.	.	.	.	.	.	.	.
.	.	.	.	.	(16ff#\	.	(16aa\	.	.	.	.	.	.	.	.	.	.	.
.	.	.	.	.	16ee\JJ)	.	16gg\JJ)	.	.	.	.	.	.	.	.	.	.	.
4D/	.	.	4f#\	.	(16dd\LL	.	(16ff#\LL	.	.	.	.	.	.	.	8d\L	.	8a\L	.
.	.	.	.	.	16cc\)	.	16ee\)	.	.	.	.	.	.	.	.	.	.	.
.	.	.	.	.	(16b\	.	(16dd\	.	.	.	.	.	.	.	8a\J	.	8cc\J	.
.	.	.	.	.	16a\JJ)	.	16cc\JJ)	.	.	.	.	.	.	.	.	.	.	.
=17	=17	=17	=17	=17	=17	=17	=17	=17	=17	=17	=17	=17	=17	=17	=17	=17	=17	=17
.	.	.	.	.	8qqa/	.	8qqcc/	.	.	.	8qqa/	.	8qqcc/	.	.	.	.	.
!	!	!	!	!	!	!	!	!	!	!	!	!	!	!	!LO:TX:t=P:problem=mixed beam	!	!LO:TX:t=P:problem=mixed beam	!
[4GG/	.	.	4d\	.	4g/	.	4b/	.	1ryy	1ryy	8.g\L	se-	8.b\L	se-	8g\L	.	8b\L	.
.	.	.	.	.	.	.	.	.	.	.	.	.	.	.	16B/L	.	16d/L	.
.	.	.	.	.	.	.	.	.	.	.	16f#\Jk	.	16a\Jk	.	16B/JJ	.	16d/JJ	.
!LO:TX:t=P:problem=mixed beam	!	!	!	!	!	!	!	!	!	!	!	!	!	!	!	!	!	!
16GG/LL]	.	.	4r	.	4r	.	4r	.	.	.	4g\	-de	4g/	-de	4B/	.	4d/	.
16G\	.	.	.	.	.	.	.	.	.	.	.	.	.	.	.	.	.	.
16D\	.	.	.	.	.	.	.	.	.	.	.	.	.	.	.	.	.	.
16BB\JJ	.	.	.	.	.	.	.	.	.	.	.	.	.	.	.	.	.	.
!LO:TX:t=P:problem=mixed beam	!	!	!	!	!	!	!	!	!	!	!	!	!	!	!	!	!	!
8GG/L	6	.	8e\L	.	8g/L	.	8b\L	.	.	.	2r	.	[4ee\	de-	2r	.	2r	.
8G\	.	.	8e\	.	8g/	.	8b\	.	.	.	.	.	.	.	.	.	.	.
8G\	4 2	.	8e\	.	8a/	.	8cc#X\	.	.	.	.	.	16ee\LL]	.	.	.	.	.
.	.	.	.	.	.	.	.	.	.	.	.	.	(16a\	.	.	.	.	.
8G\J	.	.	8e\J	.	8a/J	.	8cc#\J	.	.	.	.	.	16b\	.	.	.	.	.
.	.	.	.	.	.	.	.	.	.	.	.	.	16cc#X\JJ)	.	.	.	.	.
!LO:LB:g=original	!	!	!	!	!	!	!	!	!	!	!	!	!	!	!	!	!	!
=18	=18	=18	=18	=18	=18	=18	=18	=18	=18	=18	=18	=18	=18	=18	=18	=18	=18	=18
!	!	!	!	!	!	!	!	!	!	!	!	!	!	!	!LO:TX:a:t=1.	!	!LO:TX:a:t=1.	!
8F#\L	6	.	8d\L	.	8a/L	.	8dd\L	.	1ryy	1ryy	[4a\	De-	8.dd\	-po-	1r	.	1r	.
8F#\	.	.	8d\	.	8a/	.	8dd\	.	.	.	.	.	.	.	.	.	.	.
.	.	.	.	.	.	.	.	.	.	.	.	.	16cc#X\	-su-	.	.	.	.
.	.	.	.	.	.	.	.	.	.	.	.	.	8qqcc#/	.	.	.	.	.
8F#\	.	.	8d\	.	8a/	.	8dd\	.	.	.	16a\LL]	.	4dd\	-it	.	.	.	.
.	.	.	.	.	.	.	.	.	.	.	(16d\	.	.	.	.	.	.	.
8F#\J	.	.	8d\J	.	8a/J	.	8dd\J	.	.	.	16e\	.	.	.	.	.	.	.
.	.	.	.	.	.	.	.	.	.	.	16f#\JJ)	.	.	.	.	.	.	.
8Fn\L	4 2	.	8d\L	.	8g/L	.	8b/L	.	.	.	8.g\	-po-	[4dd\	de-	.	.	.	.
8F\	.	.	8d\	.	8g/	.	8b/	.	.	.	.	.	.	.	.	.	.	.
.	.	.	.	.	.	.	.	.	.	.	16f#\	-su-	.	.	.	.	.	.
.	.	.	.	.	.	.	.	.	.	.	8qqf#/	.	.	.	.	.	.	.
8F\	.	.	8d\	.	8g/	.	8b/	.	.	.	4g\	-it	16dd\LL]	.	.	.	.	.
.	.	.	.	.	.	.	.	.	.	.	.	.	(16g\	.	.	.	.	.
8F\J	.	.	8d\J	.	8g/J	.	8b/J	.	.	.	.	.	16a\	.	.	.	.	.
.	.	.	.	.	.	.	.	.	.	.	.	.	16b\JJ)	.	.	.	.	.
!	!	!	!	!	!	!	!	!	!	!	!LO:LB:g=original	!	!LO:LB:g=original	!	!	!	!	!
=19	=19	=19	=19	=19	=19	=19	=19	=19	=19	=19	=19	=19	=19	=19	=19	=19	=19	=19
8E\L	6	.	8c\L	.	8g/L	.	8ccn\L	.	1ryy	1ryy	[4g\	De-	8.ccn\	-po-	2r	.	2r	.
8E\	.	.	8c\	.	8g/	.	8cc\	.	.	.	.	.	.	.	.	.	.	.
.	.	.	.	.	.	.	.	.	.	.	.	.	16b\	-su-	.	.	.	.
.	.	.	.	.	.	.	.	.	.	.	.	.	8qqb/	.	.	.	.	.
8E\	.	.	8c\	.	8g/	.	8cc\	.	.	.	16g\LL]	.	4cc\	-it	.	.	.	.
.	.	.	.	.	.	.	.	.	.	.	(16c\	.	.	.	.	.	.	.
8E\J	.	.	8c\J	.	8g/J	.	8cc\J	.	.	.	16d\	.	.	.	.	.	.	.
.	.	.	.	.	.	.	.	.	.	.	16e\JJ)	.	.	.	.	.	.	.
8D/L	7 #	.	8f#\L	.	(16a\LL	.	(16cc\LL	.	.	.	2aT\	.	2ccT\	de-	8r	.	8r	.
.	.	.	.	.	16cc\)	.	16ff#\)	.	.	.	.	.	.	.	.	.	.	.
8D/	.	.	8f#\	.	(16ff#\	.	(16aa\	.	.	.	.	.	.	.	16a\LL	.	16cc\LL	.
.	.	.	.	.	16ee\JJ)	.	16gg\JJ)	.	.	.	.	.	.	.	16a\JJ	.	16cc\JJ	.
8D/	.	.	8f#\	.	(16dd\LL	.	(16ff#\LL	.	.	.	.	.	.	.	8a\L	.	8cc\L	.
.	.	.	.	.	16cc\)	.	16ee\)	.	.	.	.	.	.	.	.	.	.	.
8D/J	.	.	8f#\J	.	(16b\	.	(16dd\	.	.	.	.	.	.	.	8a\J	.	8cc\J	.
.	.	.	.	.	16a\JJ)	.	16cc\JJ)	.	.	.	.	.	.	.	.	.	.	.
=20	=20	=20	=20	=20	=20	=20	=20	=20	=20	=20	=20	=20	=20	=20	=20	=20	=20	=20
!	!	!	!	!	!	!	!	!	!	!	!	!	!	!	!LO:TX:a:t=t.	!	!LO:TX:a:t=t.	!
8D/L	.	.	8f#\L	.	8.f#/L	.	8.a/L	.	1ryy	1ryy	8.a\	-po-	8.cc\	-po-	2a\	.	2cc\	.
8D/	.	.	8f#\	.	.	.	.	.	.	.	.	.	.	.	.	.	.	.
.	.	.	.	.	16g/Jk	.	16b/Jk	.	.	.	16g\	-su-	16b\	-su-	.	.	.	.
8D/	.	.	8f#\	.	4a/	.	4cc\	.	.	.	4f#\	-it	4a\	-it	.	.	.	.
8D/J	.	.	8f#\J	.	.	.	.	.	.	.	.	.	.	.	.	.	.	.
4GG/	.	.	4d\	.	(16g/LL	.	16b\LL	.	.	.	8g\	po-	8b\	po-	8g\L	.	8b\L	.
.	.	.	.	.	16b/	.	(16gg\	.	.	.	.	.	.	.	.	.	.	.
.	.	.	.	.	16a/	.	16ff#\	.	.	.	(16f#\LL	-ten-	(16a\LL	-ten-	16d\L	.	16a\L	.
.	.	.	.	.	16b/JJ)	.	16gg\JJ)	.	.	.	16g\JJ)	.	16b\JJ)	.	16g\JJ	.	16b\JJ	.
8C/L	8 6	.	8e\L	.	8cc\L	.	8aa\L	.	.	.	8a\	-tes	8cc\	-tes	8a\L	.	8cc\L	.
8C#X/J	7 5	.	8e\J	.	8b\J	.	8gg\J	.	.	.	8g\	de	8b\	de	8g\J	.	8b\J	.
!	!	!	!	!	!LO:LB:g=original	!	!LO:LB:g=original	!	!	!	!	!	!	!	!	!	!	!
=21	=21	=21	=21	=21	=21	=21	=21	=21	=21	=21	=21	=21	=21	=21	=21	=21	=21	=21
.	.	.	.	.	.	.	.	.	.	.	8qqa/	.	8qqcc/	.	8qqa/	.	8qqcc/	.
!	!	!	!LO:TX:t=P:problem=mixed beam	!	!	!	!	!	!	!	!	!	!	!	!	!	!	!
8r	6 4	.	8d\L	.	8bt/L	.	8ggT\L	.	1ryy	1ryy	8g\	Se-	8b\	Se-	8g\L	.	8b\L	.
16D\LL	5 3	.	8D/J	.	8a/J	.	8ff#\J	.	.	.	8f#\	-de	8a\	-de	8d\J	.	8a\J	.
16E\JJ	.	.	.	.	.	.	.	.	.	.	.	.	.	.	.	.	.	.
8F#\L	6	.	8a\L	.	4r	.	8r	.	.	.	4r	.	8r	.	4r	.	4r	.
!	!	!	!	!	!	!	!LO:TX:t=P:problem=kreska taktowa	!	!	!	!	!	!	!	!	!	!	!
8D\J	.	.	8f#\J	.	.	.	8a/	.	.	.	.	.	8a\	et	.	.	.	.
8G\L	.	.	4d\	.	4r	.	8b/L	.	.	.	4r	.	8b\	ex-	2r	.	2r	.
8F#\	.	.	.	.	.	.	16g/L	.	.	.	.	.	(16g\LL	-al-	.	.	.	.
.	.	.	.	.	.	.	16a/JJ	.	.	.	.	.	16a\JJ)	.	.	.	.	.
8G\	.	.	4r	.	8r	.	8b/L	.	.	.	8r	.	(16b\LL	-ta-	.	.	.	.
.	.	.	.	.	.	.	.	.	.	.	.	.	16dd\JJ)	.	.	.	.	.
8A\J	#	.	.	.	8e/	.	8cc#X/J	.	.	.	8e\	et	(16cc#X\LL	-vit	.	.	.	.
.	.	.	.	.	.	.	.	.	.	.	.	.	16ee\JJ)	.	.	.	.	.
!	!	!	!	!	!	!	!	!	!	!	!	!	!	!	!LO:LB:g=original	!	!	!
=22	=22	=22	=22	=22	=22	=22	=22	=22	=22	=22	=22	=22	=22	=22	=22	=22	=22	=22
!	!	!	!	!	!	!	!	!	!	!	!	!	!	!	!LO:TX:a:t=3.	!	!LO:TX:a:t=3.	!
8D/L	.	.	0r	.	8f#/L	.	8.dd\L	.	1ryy	1ryy	8f#\	ex-	8.dd\	hu-	0r	.	0r	.
8C#X/	.	.	.	.	16d/L	.	.	.	.	.	(16d\LL	-al-	.	.	.	.	.	.
.	.	.	.	.	16e/JJ	.	16dd\Jk	.	.	.	16e\JJ)	.	16dd\	-mi-	.	.	.	.
8D/	.	.	.	.	8f#/L	.	4dd\	.	.	.	(16f#\LL	-ta-	8dd\	-les	.	.	.	.
.	.	.	.	.	.	.	.	.	.	.	16a\JJ)	.	.	.	.	.	.	.
!	!	!	!	!	!	!	!	!	!	!	!	!	!LO:TX:t=P:problem=custos w postaci samego ♮ na poziomie cc	!	!	!	!	!
8E/J	#	.	.	.	8g#X/J	.	.	.	.	.	(16g#X\LL	-vit	8b\	et	.	.	.	.
*	*	*	*	*	*	*	*	*	*	*	*	*	*custos:ccn	*	*	*	*	*
.	.	.	.	.	.	.	.	.	.	.	16b\JJ)	.	.	.	.	.	.	.
=-	=-	=-	=-	=-	=-	=-	=-	=-	=-	=-	=-	=-	=-	=-	=-	=-	=-	=-
8A\L	n	.	.	.	8.a/L	.	8ccn\L	.	.	.	8.a\	hu-	8ccn\	ex-	.	.	.	.
8G#X\	.	.	.	.	.	.	16a\L	.	.	.	.	.	(16a\LL	-al-	.	.	.	.
.	.	.	.	.	16a/Jk	.	16b\JJ	.	.	.	16a\	-mi-	16b\JJ)	.	.	.	.	.
8A\	.	.	.	.	4a/	.	8cc\L	.	.	.	8a\	-les	(16cc\LL	-ta-	.	.	.	.
.	.	.	.	.	.	.	.	.	.	.	.	.	16ee\JJ)	.	.	.	.	.
8B\J	7 #	.	.	.	.	.	8dd#X\J	.	.	.	8f#\	et	(16dd#X\LL	-vit	.	.	.	.
*custos:E	*	*	*	*	*	*	*	*	*	*	*	*	*	*	*	*	*	*
.	.	.	.	.	.	.	.	.	.	.	.	.	16ff#\JJ)	.	.	.	.	.
!LO:LB:g=original	!	!	!	!	!	!	!	!	!	!	!LO:LB:g=original	!	!	!	!	!	!	!
=23	=23	=23	=23	=23	=23	=23	=23	=23	=23	=23	=23	=23	=23	=23	=23	=23	=23	=23
8E\L	n	.	.	.	8gn/L	.	8.ee\L	.	1ryy	1ryy	8gn\	ex-	8.ee\	hu-	.	.	.	.
8D#X\	.	.	.	.	16e/L	.	.	.	.	.	(16e\LL	-al-	.	.	.	.	.	.
.	.	.	.	.	16f#/JJ	.	16ee\Jk	.	.	.	16f#\JJ)	.	16ee\	-mi-	.	.	.	.
8E\	.	.	.	.	8g/L	.	4ee\	.	.	.	(16g\LL	-ta-	8ee\	-les	.	.	.	.
.	.	.	.	.	.	.	.	.	.	.	16b\JJ)	.	.	.	.	.	.	.
8F#\J	7 #	.	.	.	8a#X/J	.	.	.	.	.	(16a#X\LL	-vit	8cc#X\	et	.	.	.	.
.	.	.	.	.	.	.	.	.	.	.	16cc#X\JJ)	.	.	.	.	.	.	.
!LO:TX:t=P:problem=mixed beam	!	!	!	!	!	!	!	!	!	!	!	!	!	!	!	!	!	!
8BB/L	.	.	.	.	4b/	.	(16dd\LL	.	.	.	8.b\	hu-	16dd\LL	ex-	.	.	.	.
.	.	.	.	.	.	.	16ff#\	.	.	.	.	.	16cc#X\	.	.	.	.	.
8B\	.	.	.	.	.	.	16bb\	.	.	.	.	.	16b\	.	.	.	.	.
.	.	.	.	.	.	.	16aa\JJ)	.	.	.	16b\	-mi-	(16cc#\JJ	.	.	.	.	.
8B\	6	.	.	.	8r	.	[4gg\	.	.	.	4b\	-les	16dd\LL	.	.	.	.	.
.	.	.	.	.	.	.	.	.	.	.	.	.	16ee\	.	.	.	.	.
8B\J	.	.	.	.	8dd\	.	.	.	.	.	.	.	16ff#\	.	.	.	.	.
.	.	.	.	.	.	.	.	.	.	.	.	.	16gg\JJ)	.	.	.	.	.
=24	=24	=24	=24	=24	=24	=24	=24	=24	=24	=24	=24	=24	=24	=24	=24	=24	=24	=24
*	*	*	*	*	*2\right	*	*	*	*	*	*	*	*	*	*	*	*	*
8A\L	7 #	.	1r	.	2cc#X\	.	4gg\]	.	1ryy	1ryy	1r	.	(>16cc#X\LL	.	1r	.	1r	.
.	.	.	.	.	.	.	.	.	.	.	.	.	16b\	.	.	.	.	.
8A\	.	.	.	.	.	.	.	.	.	.	.	.	16a\)	.	.	.	.	.
.	.	.	.	.	.	.	.	.	.	.	.	.	16b\JJ	.	.	.	.	.
*	*	*	*	*	*	*	*2\right	*	*	*	*	*	*	*	*	*	*	*
8A\	6	.	.	.	.	.	2ff#\	.	.	.	.	.	16cc#X\LL	.	.	.	.	.
.	.	.	.	.	.	.	.	.	.	.	.	.	16dd\	.	.	.	.	.
8A\J	.	.	.	.	.	.	.	.	.	.	.	.	16ee\	.	.	.	.	.
.	.	.	.	.	.	.	.	.	.	.	.	.	16ff#\JJ	.	.	.	.	.
8G\L	7	.	.	.	2b\	.	.	.	.	.	.	.	16b\LL	.	.	.	.	.
.	.	.	.	.	.	.	.	.	.	.	.	.	16a\	.	.	.	.	.
8G\	.	.	.	.	.	.	.	.	.	.	.	.	16g\	.	.	.	.	.
.	.	.	.	.	.	.	.	.	.	.	.	.	16a\JJ	.	.	.	.	.
8G\	6	.	.	.	.	.	4ee\	.	.	.	.	.	16b\LL	.	.	.	.	.
.	.	.	.	.	.	.	.	.	.	.	.	.	16cc#X\JJ	.	.	.	.	.
8G#X\J	5	.	.	.	.	.	.	.	.	.	.	.	(16dd\LL	-al-	.	.	.	.
.	.	.	.	.	.	.	.	.	.	.	.	.	16ee\JJ)	.	.	.	.	.
=25	=25	=25	=25	=25	=25	=25	=25	=25	=25	=25	=25	=25	=25	=25	=25	=25	=25	=25
4A\	#	.	2r	.	4cc#X\	.	4ee\	.	1ryy	1ryy	2r	.	(8.cc#Xt\L	-ta-	8r	.	8r	.
.	.	.	.	.	.	.	.	.	.	.	.	.	.	.	16a\LL	.	16a\LL	.
.	.	.	.	.	.	.	.	.	.	.	.	.	16b\Jk)	.	16a\JJ	.	16a\JJ	.
8C#X|</L	6	.	.	.	4r	.	4r	.	.	.	.	.	8a\	-vit	8a\L	.	8a\L	.
8E|</J	.	.	.	.	.	.	.	.	.	.	.	.	8r	.	8a\J	.	8a\J	.
!	!	!	!LO:LB:g=original	!	!	!	!	!	!	!	!	!	!LO:LB:g=original	!	!	!	!LO:LB:g=original	!
=-	=-	=-	=-	=-	=-	=-	=-	=-	=-	=-	=-	=-	=-	=-	=-	=-	=-	=-
[>2AA/	#	.	4r	.	4r	.	2r	.	.	.	8r	.	2r	.	4a\	.	4a\	.
.	.	.	.	.	.	.	.	.	.	.	8a\	et	.	.	.	.	.	.
.	.	.	4c#X/	.	4a/	.	.	.	.	.	8a\	ex-	.	.	4r	.	4r	.
.	.	.	.	.	.	.	.	.	.	.	8a\	-al-	.	.	.	.	.	.
=26	=26	=26	=26	=26	=26	=26	=26	=26	=26	=26	=26	=26	=26	=26	=26	=26	=26	=26
!LO:TX:b:i:t=Tasto Solo.	!	!	!	!	!	!	!	!	!	!	!	!	!	!	!LO:TX:a:t=2.	!	!LO:TX:a:t=2.	!
1AA_>	.	.	4d\	.	4a/	.	2b/	.	1ryy	1ryy	4a\	-ta-	8r	.	0r	.	0r	.
.	.	.	.	.	.	.	.	.	.	.	.	.	8b\	et	.	.	.	.
.	.	.	4e\	.	4g#X/	.	.	.	.	.	4g#X\	.	8b\	ex-	.	.	.	.
.	.	.	.	.	.	.	.	.	.	.	.	.	8b\	-al-	.	.	.	.
.	.	.	4A/	.	4gn/	.	4cc#X\	.	.	.	8gn\L	.	4cc#X\	-ta-	.	.	.	.
.	.	.	.	.	.	.	.	.	.	.	16f#\L	.	.	.	.	.	.	.
.	.	.	.	.	.	.	.	.	.	.	16e\JJ	.	.	.	.	.	.	.
.	.	.	4d\	.	4f#/	.	[4dd\	.	.	.	8f#\L	.	[4dd\	.	.	.	.	.
.	.	.	.	.	.	.	.	.	.	.	8d\J	.	.	.	.	.	.	.
!	!	!	!	!	!LO:LB:g=original	!	!	!	!	!	!	!	!	!	!	!	!	!
=27	=27	=27	=27	=27	=27	=27	=27	=27	=27	=27	=27	=27	=27	=27	=27	=27	=27	=27
1AA_>	.	.	2A/	.	4e/	.	4dd\]	.	1ryy	1ryy	4e\	.	8dd\L]	.	.	.	.	.
.	.	.	.	.	.	.	.	.	.	.	.	.	16cc\L	.	.	.	.	.
.	.	.	.	.	.	.	.	.	.	.	.	.	16b\JJ	.	.	.	.	.
.	.	.	.	.	2a/	.	4cc#X\	.	.	.	4.a\	.	8cc#X\L	.	.	.	.	.
.	.	.	.	.	.	.	.	.	.	.	.	.	8a\J	.	.	.	.	.
!	!	!	!	!	!	!	!LO:LB:g=original	!	!	!	!	!	!	!	!	!	!	!
=-	=-	=-	=-	=-	=-	=-	=-	=-	=-	=-	=-	=-	=-	=-	=-	=-	=-	=-
*	*	*	*2\right	*	*	*	*	*	*	*	*	*	*	*	*	*	*	*
.	.	.	2e\	.	.	.	4b\	.	.	.	.	.	4b\	.	.	.	.	.
.	.	.	.	.	.	.	.	.	.	.	16g\LL	.	.	.	.	.	.	.
.	.	.	.	.	.	.	.	.	.	.	16f#\JJ	.	.	.	.	.	.	.
.	.	.	.	.	[>4g/	.	8ee\L	.	.	.	[4g\	.	8ee\L	.	.	.	.	.
.	.	.	.	.	.	.	8dd\J	.	.	.	.	.	8dd\J	.	.	.	.	.
=28	=28	=28	=28	=28	=28	=28	=28	=28	=28	=28	=28	=28	=28	=28	=28	=28	=28	=28
1AA]	.	.	4A/	.	4g/]	.	8cc#X\L	.	1ryy	1ryy	4g\]	.	16cc#X|>\LL	.	4r	.	4r	.
.	.	.	.	.	.	.	.	.	.	.	.	.	(16cc#\	.	.	.	.	.
.	.	.	.	.	.	.	8a\J	.	.	.	.	.	16b\	.	.	.	.	.
.	.	.	.	.	.	.	.	.	.	.	.	.	16a\JJ)	.	.	.	.	.
.	.	.	4B/	.	4f#/	.	2dd\	.	.	.	16f#|>\LL	.	2dd\	.	4a\	.	2dd\	.
.	.	.	.	.	.	.	.	.	.	.	16f#'\	.	.	.	.	.	.	.
.	.	.	.	.	.	.	.	.	.	.	(16e\	.	.	.	.	.	.	.
.	.	.	.	.	.	.	.	.	.	.	16d\JJ)	.	.	.	.	.	.	.
!	!	!	!	!	!	!	!	!	!	!	!LO:LB:g=original	!	!	!	!	!	!	!
=-	=-	=-	=-	=-	=-	=-	=-	=-	=-	=-	=-	=-	=-	=-	=-	=-	=-	=-
.	.	.	4G/	.	2eT/	.	.	.	.	.	2eT\	.	.	.	4.a\	.	.	.
.	.	.	4A/	.	.	.	4cc#Xt\	.	.	.	.	.	4cc#Xt\	.	.	.	4cc#X\	.
.	.	.	.	.	.	.	.	.	.	.	.	.	.	.	8a\	.	.	.
=29	=29	=29	=29	=29	=29	=29	=29	=29	=29	=29	=29	=29	=29	=29	=29	=29	=29	=29
4DD/	.	.	4D/	.	4f#/	.	4dd\	.	1ryy	1ryy	4f#\	-vit	8dd\	-vit	4a\	.	4dd\	.
.	.	.	.	.	.	.	.	.	.	.	.	.	8d/	et	.	.	.	.
4r	.	.	4r	.	4r	.	4r	.	.	.	8r	.	8e/	ex-	4r	.	4r	.
.	.	.	.	.	.	.	.	.	.	.	8d\	et	8f#/	-al-	.	.	.	.
4r	.	.	2r	.	2r	.	2r	.	.	.	8e\	ex-	8g/L	-ta-	2r	.	2r	.
.	.	.	.	.	.	.	.	.	.	.	8f#\	-al-	8a/	.	.	.	.	.
8r	.	.	.	.	.	.	.	.	.	.	(8g\L	-ta-	8b/	.	.	.	.	.
8A\	#	.	.	.	.	.	.	.	.	.	8e\J)	.	8cc#X/J	.	.	.	.	.
!	!	!	!	!	!	!	!	!	!	!	!	!	!LO:LB:g=original	!	!	!	!	!
=30	=30	=30	=30	=30	=30	=30	=30	=30	=30	=30	=30	=30	=30	=30	=30	=30	=30	=30
!LO:TX:t=P:problem=mixed beam	!	!	!	!	!	!	!	!	!	!	!	!	!	!	!	!	!	!
8D\L	.	.	2r	.	2r	.	2r	.	1ryy	1ryy	(32f#\LLL	.	(32dd\LLL	.	2r	.	2r	.
.	.	.	.	.	.	.	.	.	.	.	32g\J	.	32ee\J)	.	.	.	.	.
.	.	.	.	.	.	.	.	.	.	.	16a\JJ)	.	16ff#\JJ	.	.	.	.	.
8G\	6	.	.	.	.	.	.	.	.	.	(16g\LL	-vit	(16ee\LL	-vit	.	.	.	.
.	.	.	.	.	.	.	.	.	.	.	16f#\JJ)	.	16dd\JJ)	.	.	.	.	.
8A\	#	.	.	.	.	.	.	.	.	.	8.eT\	hu-	8.cc#Xt\	hu-	.	.	.	.
8AA/J	.	.	.	.	.	.	.	.	.	.	.	.	.	.	.	.	.	.
.	.	.	.	.	.	.	.	.	.	.	16e\	-mi-	16cc#\	-mi-	.	.	.	.
!LO:LB:g=original	!	!	!	!	!	!	!	!	!	!	!	!	!	!	!	!	!	!
=-	=-	=-	=-	=-	=-	=-	=-	=-	=-	=-	=-	=-	=-	=-	=-	=-	=-	=-
!	!	!LO:DY:b:t=for	!	!LO:DY:b:t=fr	!	!LO:DY:b:t=for	!	!LO:DY:b:t=for&colon;	!	!	!	!	!	!	!	!LO:DY:b:t=for	!	!LO:DY:b:t=for
4D\	.	f	4a\	f	8.ddT\L	f	8.ff#t\L	f	.	.	4f#\	-les	4dd\	-les	4a\	f	4dd\	f
.	.	.	.	.	16ee\Jk	.	16gg\Jk	.	.	.	.	.	.	.	.	.	.	.
4d\	.	.	4a\	.	16dd|>\LL	.	16ff#|>\LL	.	.	.	4r	.	4r	.	4a\	.	4dd\	.
.	.	.	.	.	(16dd\	.	(16ff#\	.	.	.	.	.	.	.	.	.	.	.
.	.	.	.	.	16ee\	.	16gg\	.	.	.	.	.	.	.	.	.	.	.
.	.	.	.	.	16ff#\JJ)	.	16aa\JJ)	.	.	.	.	.	.	.	.	.	.	.
=31	=31	=31	=31	=31	=31	=31	=31	=31	=31	=31	=31	=31	=31	=31	=31	=31	=31	=31
!	!	!	!	!	!	!	!	!	!	!	!LO:TX:a:t=6.	!	!LO:TX:a:t=6	!	!	!	!	!
.	.	.	.	.	8qqee/	.	8qqgg/	.	.	.	.	.	.	.	.	.	.	.
4D\	.	.	4a\	.	8.dd\L	.	8.ff#\L	.	1ryy	1ryy	00r	.	00r	.	4a\	.	4dd\	.
.	.	.	.	.	16ee\Jk	.	16gg\Jk	.	.	.	.	.	.	.	.	.	.	.
4r	.	.	4r	.	4ff#\	.	4aa\	.	.	.	.	.	.	.	4r	.	4r	.
4A\	7 #	.	4c#X/	.	(16ee\LL	.	(16gg\LL	.	.	.	.	.	.	.	2a\	.	2cc#X\	.
.	.	.	.	.	16dd\)	.	16ff#\)	.	.	.	.	.	.	.	.	.	.	.
.	.	.	.	.	(16cc#X\	.	(16ee\	.	.	.	.	.	.	.	.	.	.	.
.	.	.	.	.	16b\JJ)	.	16dd\JJ)	.	.	.	.	.	.	.	.	.	.	.
4AA/	.	.	4c#/	.	(16a/LL	.	16cc#X\LL	.	.	.	.	.	.	.	.	.	.	.
.	.	.	.	.	16g/)	.	16b\	.	.	.	.	.	.	.	.	.	.	.
.	.	.	.	.	(16f#/	.	16a\	.	.	.	.	.	.	.	.	.	.	.
.	.	.	.	.	16e/JJ)	.	16g\JJ	.	.	.	.	.	.	.	.	.	.	.
=32	=32	=32	=32	=32	=32	=32	=32	=32	=32	=32	=32	=32	=32	=32	=32	=32	=32	=32
4D\	.	.	4A/	.	16r	.	16r	.	1ryy	1ryy	.	.	.	.	4a\	.	4dd\	.
.	.	.	.	.	16d|</LL	.	16f#|</LL	.	.	.	.	.	.	.	.	.	.	.
.	.	.	.	.	16f#|</	.	16a|</	.	.	.	.	.	.	.	.	.	.	.
.	.	.	.	.	16a|</JJ	.	16dd|</JJ	.	.	.	.	.	.	.	.	.	.	.
8r	.	.	4r	.	4.ddT\	.	4.ff#t\	.	.	.	.	.	.	.	4r	.	4r	.
8B\	.	.	.	.	.	.	.	.	.	.	.	.	.	.	.	.	.	.
4A\	6 4	.	4a\	.	.	.	.	.	.	.	.	.	.	.	4.a\	.	4dd\	.
.	.	.	.	.	(16cc#X\LL	.	16ee\LL	.	.	.	.	.	.	.	.	.	.	.
.	.	.	.	.	16b\JJ)	.	16dd\JJ	.	.	.	.	.	.	.	.	.	.	.
!	!	!	!	!	!	!	!	!	!	!	!	!	!	!	!	!	!LO:TX:a:t=t.	!
4AA/	7 #	.	4A/	.	(16a/LL	.	(16cc#X\LL	.	.	.	.	.	.	.	.	.	4cc#X\	.
.	.	.	.	.	16g/)	.	16b\)	.	.	.	.	.	.	.	.	.	.	.
.	.	.	.	.	(16f#/	.	(16a\	.	.	.	.	.	.	.	8a\	.	.	.
.	.	.	.	.	16e/JJ)	.	16g\JJ)	.	.	.	.	.	.	.	.	.	.	.
!	!	!	!	!	!LO:LB:g=original	!	!	!	!	!	!	!	!	!	!LO:LB:g=original	!	!	!
=33	=33	=33	=33	=33	=33	=33	=33	=33	=33	=33	=33	=33	=33	=33	=33	=33	=33	=33
8D\L	.	.	8A/L	.	16d|</LL	.	16f#/KL	.	1ryy	1ryy	.	.	.	.	4d/	.	4dd\	.
.	.	.	.	.	(16f#/JJ	.	(8a/	.	.	.	.	.	.	.	.	.	.	.
8D\	.	.	8d/	.	16r	.	.	.	.	.	.	.	.	.	.	.	.	.
.	.	.	.	.	16g/)	.	16b/Jk)	.	.	.	.	.	.	.	.	.	.	.
!	!	!	!	!	!LO:TUP:a:problem=klamra łukowa	!	!	!	!	!	!	!	!	!	!	!	!	!
8D\	7nr	.	8f#/	.	24a\LL	.	24cc\LL	.	.	.	.	.	.	.	4r	.	4r	.
.	.	.	.	.	24b\	.	24dd\	.	.	.	.	.	.	.	.	.	.	.
.	.	.	.	.	24cc\JJ	.	24ee\JJ	.	.	.	.	.	.	.	.	.	.	.
8D\J	.	.	8f#/J	.	16b/LL	.	16dd\LL	.	.	.	.	.	.	.	.	.	.	.
.	.	.	.	.	16a/JJ	.	16cc\JJ	.	.	.	.	.	.	.	.	.	.	.
!	!	!	!	!	!	!	!LO:LB:g=original	!	!	!	!	!	!	!	!	!	!	!
=-	=-	=-	=-	=-	=-	=-	=-	=-	=-	=-	=-	=-	=-	=-	=-	=-	=-	=-
8G\L	.	.	8d\L	.	16g|</LL	.	16b|>\KL	.	.	.	.	.	.	.	4b\	.	4dd\	.
.	.	.	.	.	(16g#X/JJ	.	(8b\	.	.	.	.	.	.	.	.	.	.	.
8E\	7 #	.	8e\	.	16r	.	.	.	.	.	.	.	.	.	.	.	.	.
.	.	.	.	.	16a/)	.	16cc#X\Jk)	.	.	.	.	.	.	.	.	.	.	.
*	*	*	*	*	*	*	*Xtuplet	*	*	*	*	*	*	*	*	*	*	*
!	!	!	!	!	!LO:TUP:a:problem=klamra łukowa	!	!LO:TUP:a:problem=klamra łukowa	!	!	!	!	!	!	!	!	!	!	!
8E\	.	.	8g#X\	.	24b\LL	.	24dd\LL	.	.	.	.	.	.	.	4r	.	4r	.
.	.	.	.	.	24cc#X\	.	24ee\	.	.	.	.	.	.	.	.	.	.	.
.	.	.	.	.	24dd\JJ	.	24ff#\JJ	.	.	.	.	.	.	.	.	.	.	.
8E\J	.	.	8g#\J	.	16cc#\LL	.	16ee\LL	.	.	.	.	.	.	.	.	.	.	.
.	.	.	.	.	16b\JJ	.	16dd\JJ	.	.	.	.	.	.	.	.	.	.	.
=34	=34	=34	=34	=34	=34	=34	=34	=34	=34	=34	=34	=34	=34	=34	=34	=34	=34	=34
!LO:TX:t=P:problem=mixed beam	!	!	!	!	!	!	!	!	!	!	!	!	!	!	!	!	!	!
8A\L	#	.	8e\L	.	16a|>\KL	.	16cc#X|>\KL	.	1ryy	1ryy	.	.	.	.	2a\	.	2cc#X\	.
.	.	.	.	.	(8cc#X\	.	(8ee\	.	.	.	.	.	.	.	.	.	.	.
8AA/	7	.	8e\	.	.	.	.	.	.	.	.	.	.	.	.	.	.	.
.	.	.	.	.	16dd\Jk)	.	16ff#\Jk)	.	.	.	.	.	.	.	.	.	.	.
!	!	!	!	!	!LO:TUP:a:problem=klamra łukowa	!	!	!	!	!	!	!	!	!	!	!	!	!
8AA/	.	.	8c#X\	.	24ee\LL	.	24gg\LL	.	.	.	.	.	.	.	.	.	.	.
.	.	.	.	.	24ff#\	.	24aa\	.	.	.	.	.	.	.	.	.	.	.
.	.	.	.	.	24gg\JJ	.	24bb\JJ	.	.	.	.	.	.	.	.	.	.	.
8AA/J	.	.	8c#\J	.	16ff#\LL	.	16aa\LL	.	.	.	.	.	.	.	.	.	.	.
.	.	.	.	.	16ee\JJ	.	16gg\JJ	.	.	.	.	.	.	.	.	.	.	.
!	!	!	!LO:TX:t=P:problem=mixed beam	!	!	!	!	!	!	!	!	!	!	!	!	!	!	!
8D\L	.	.	8A/L	.	8.ddT\L	.	8.ff#t\L	.	.	.	.	.	.	.	4a\	.	4dd\	.
8d\	.	.	8a\	.	.	.	.	.	.	.	.	.	.	.	.	.	.	.
.	.	.	.	.	(32cc#X\LL	.	(32ee\LL	.	.	.	.	.	.	.	.	.	.	.
.	.	.	.	.	32dd\JJJ)	.	32ff#\JJJ)	.	.	.	.	.	.	.	.	.	.	.
8c#X\	.	.	8a\	.	8.eeT\L	.	8.ggT\L	.	.	.	.	.	.	.	8r	.	8r	.
8A\J	.	.	8c#X/J	.	.	.	.	.	.	.	.	.	.	.	8a\	.	8cc#X\	.
.	.	.	.	.	(32dd\LL	.	(32ff#\LL	.	.	.	.	.	.	.	.	.	.	.
.	.	.	.	.	32cc#X\JJJ)	.	32ee\JJJ)	.	.	.	.	.	.	.	.	.	.	.
!	!	!	!LO:LB:g=original	!	!	!	!	!	!	!	!	!	!	!	!	!	!	!
=35	=35	=35	=35	=35	=35	=35	=35	=35	=35	=35	=35	=35	=35	=35	=35	=35	=35	=35
8r	.	.	8r	.	8.ddT\L	.	8.ff#t\L	.	1ryy	1ryy	0r	.	0r	.	4a\	.	4dd\	.
8d\L	.	.	8A/L	.	.	.	.	.	.	.	.	.	.	.	.	.	.	.
.	.	.	.	.	(32cc#X\LL	.	(32ee\LL	.	.	.	.	.	.	.	.	.	.	.
.	.	.	.	.	32dd\JJJ)	.	32ff#\JJJ)	.	.	.	.	.	.	.	.	.	.	.
8c#X\	.	.	8A/	.	8.eeT\L	.	8.gg\L	.	.	.	.	.	.	.	8r	.	8r	.
8A\J	.	.	8c#X/J	.	.	.	.	.	.	.	.	.	.	.	8a\	.	8cc#X\	.
.	.	.	.	.	(32dd\LL	.	(32ff#\LL	.	.	.	.	.	.	.	.	.	.	.
.	.	.	.	.	32cc#X\JJJ)	.	32ee\JJJ)	.	.	.	.	.	.	.	.	.	.	.
*	*	*	*	*	*	*	*tuplet	*	*	*	*	*	*	*	*	*	*	*
!LO:TX:t=P:problem=mixed beam	!	!	!	!	!LO:TUP:a:problem=klamra łukowa	!	!LO:TUP:a:problem=klamra łukowa	!	!	!	!	!	!	!	!	!	!	!
8d\L	.	.	8A/L	.	24dd\LL	.	24ff#\LL	.	.	.	.	.	.	.	8a\L	.	8dd\	.
.	.	.	.	.	24ee\	.	24gg\	.	.	.	.	.	.	.	.	.	.	.
.	.	.	.	.	24ff#\JJ	.	24aa\JJ	.	.	.	.	.	.	.	.	.	.	.
!	!	!	!	!	!LO:TUP:a:problem=klamra łukowa	!	!LO:TUP:a:problem=klamra łukowa	!	!	!	!	!	!	!	!	!	!	!
8G\	6	.	8B/	.	24gg\LL	.	24bb\LL	.	.	.	.	.	.	.	8b\J	.	4dd\	.
.	.	.	.	.	24ff#\	.	24aa\	.	.	.	.	.	.	.	.	.	.	.
.	.	.	.	.	24ee\JJ	.	24gg\JJ	.	.	.	.	.	.	.	.	.	.	.
8A\	6 4	.	8A/	.	8dd\L	.	8ff#\L	.	.	.	.	.	.	.	8.a\L	.	.	.
8AA/J	5 #	.	8A/J	.	8cc#Xt\J	.	8eeT\J	.	.	.	.	.	.	.	.	.	8cc#X\	.
.	.	.	.	.	.	.	.	.	.	.	.	.	.	.	16a\Jk	.	.	.
!LO:LB:g=original	!	!	!	!	!LO:LB:g=original	!	!	!	!	!	!	!	!	!	!	!	!LO:LB:g=original	!
=36	=36	=36	=36	=36	=36	=36	=36	=36	=36	=36	=36	=36	=36	=36	=36	=36	=36	=36
!	!	!	!	!	!LO:TUP:b:problem=klamra łukowa	!	!LO:TUP:a:problem=klamra łukowa	!	!	!	!	!	!	!	!	!	!	!
8BB/L	.	.	8d\L	.	24f#/LL	.	24dd\LL	.	1ryy	1ryy	.	.	.	.	8b\	.	8dd\	.
.	.	.	.	.	24g/	.	24ee\	.	.	.	.	.	.	.	.	.	.	.
.	.	.	.	.	24a/JJ	.	24ff#\JJ	.	.	.	.	.	.	.	.	.	.	.
!	!	!	!	!	!LO:TUP:b:problem=klamra łukowa	!	!LO:TUP:a:problem=klamra łukowa	!	!	!	!	!	!	!	!	!	!	!
8GG/	6	.	8B\	.	24b/LL	.	24gg\LL	.	.	.	.	.	.	.	8r	.	8r	.
.	.	.	.	.	24a/	.	24ff#\	.	.	.	.	.	.	.	.	.	.	.
.	.	.	.	.	24g/JJ	.	24ee\JJ	.	.	.	.	.	.	.	.	.	.	.
8AA/	6 4	.	8A\	.	8f#/L	.	8dd\L	.	.	.	.	.	.	.	8a\L	.	8dd\L	.
8AA/J	7 #	.	8A\J	.	8eT/J	.	8cc#Xt\J	.	.	.	.	.	.	.	8a\J	.	8cc#X\J	.
4DD/	.	.	4A/	.	8f#|</L	.	8dd|>\L	.	.	.	.	.	.	.	4a\	.	4dd\	.
.	.	.	.	.	8a|</J	.	8a|>\J	.	.	.	.	.	.	.	.	.	.	.
4r	.	.	4r	.	4d/	.	4d/	.	.	.	.	.	.	.	4r	.	4r	.
=37	=37	=37	=37	=37	=37	=37	=37	=37	=37	=37	=37	=37	=37	=37	=37	=37	=37	=37
!	!	!LO:DY:b:t=piano.	!	!	!	!	!	!	!	!	!	!	!	!	!LO:TX:a:t=3.	!	!LO:TX:a:t=3.	!
8G#X\L	6 5	p	8r	.	8r	.	8r	.	1ryy	1ryy	4b\	De-	4dd\	De-	0r	.	0r	.
!	!	!	!	!	!	!LO:DY:b:t=pian	!	!LO:DY:b:t=pia.	!	!	!	!	!	!	!	!	!	!
8G#\	.	.	8e\L	.	(8b/L	p	(8dd\L	p	.	.	.	.	.	.	.	.	.	.
!	!	!	!	!LO:DY:b:t=po&colon;	!	!	!	!	!	!	!	!	!	!	!	!	!	!
8E\	6 4	.	8e\	p	8a/)	.	8ccn\)	.	.	.	8.a\	-po-	8.ccn\	-po-	.	.	.	.
8E\J	5 #	.	8e\J	.	8g#X|</J	.	8b|>\J	.	.	.	.	.	.	.	.	.	.	.
.	.	.	.	.	.	.	.	.	.	.	16g#X\	-su-	16b\	-su-	.	.	.	.
!	!	!	!	!	!	!	!LO:LB:g=original	!	!	!	!	!	!	!	!	!	!	!
=-	=-	=-	=-	=-	=-	=-	=-	=-	=-	=-	=-	=-	=-	=-	=-	=-	=-	=-
8E\L	6 4	.	8e\L	.	8a/L	.	(8cc\L	.	.	.	8a\	-it	8cc\	-it	.	.	.	.
8E\	.	.	8e\	.	8b/J	.	8dd\J)	.	.	.	8b\	po-	8dd\	po-	.	.	.	.
8E\	.	.	8e\	.	[4cc\	.	[4ee\	.	.	.	[4cc\	-ten-	[4ee\	-ten-	.	.	.	.
8E\J	.	.	8e\J	.	.	.	.	.	.	.	.	.	.	.	.	.	.	.
=38	=38	=38	=38	=38	=38	=38	=38	=38	=38	=38	=38	=38	=38	=38	=38	=38	=38	=38
8E\L	6 4	.	8e\L	.	8cc\L]	.	8ee\L]	.	1ryy	1ryy	8cc\L]	.	8ee\L]	.	.	.	.	.
8E\	.	.	8e\	.	16b\L	.	16dd\L	.	.	.	16b\L	.	16dd\L	.	.	.	.	.
.	.	.	.	.	16a\JJ	.	16cc\JJ	.	.	.	16a\JJ	.	16cc\JJ	.	.	.	.	.
8E\	7 #	.	8e\	.	8b/L	.	8dd\L	.	.	.	8b\L	.	8dd\L	.	.	.	.	.
8E\J	.	.	8e\J	.	8g#X/J	.	8b\J	.	.	.	8g#X\J	.	8b\J	.	.	.	.	.
4A\	.	.	4e\	.	8a/L	.	8cc\L	.	.	.	8a\L	.	8cc\L	.	.	.	.	.
.	.	.	.	.	8b/J	.	8dd\J	.	.	.	8b\J	.	8dd\J	.	.	.	.	.
8r	.	.	8r	.	[4cc\	.	[4ee\	.	.	.	[4cc\	.	[4ee\	.	.	.	.	.
8C/	6	.	8a\	.	.	.	.	.	.	.	.	.	.	.	.	.	.	.
!	!	!	!	!	!	!	!	!	!	!	!LO:LB:g=original	!	!	!	!	!	!	!
=39	=39	=39	=39	=39	=39	=39	=39	=39	=39	=39	=39	=39	=39	=39	=39	=39	=39	=39
4.D\	9 7	.	4.fn\	.	8cc\L]	.	8ee\L]	.	1ryy	1ryy	8cc\L]	.	8ee\L]	.	1r	.	1r	.
.	8 6	.	.	.	16b\L	.	16dd\L	.	.	.	16b\L	.	16dd\L	.	.	.	.	.
.	.	.	.	.	16a\JJ	.	16cc\JJ	.	.	.	16a\JJ	.	16cc\JJ	.	.	.	.	.
.	.	.	.	.	8b/L	.	8dd\L	.	.	.	8b\	-tes	8dd\	-tes	.	.	.	.
8E\	#	.	8e\	.	8g#X/J	.	8b\J	.	.	.	8g#X\	de	8b\	de	.	.	.	.
!	!	!	!	!	!	!	!	!	!	!	!	!	!LO:LB:g=original	!	!	!	!	!
=-	=-	=-	=-	=-	=-	=-	=-	=-	=-	=-	=-	=-	=-	=-	=-	=-	=-	=-
4AA/	.	.	4e\	.	8a/L	.	8cc\L	.	.	.	8.a\L	se-	8.cc\L	se-	.	.	.	.
.	.	.	.	.	16cc|</L	.	16ee|>\L	.	.	.	.	.	.	.	.	.	.	.
.	.	.	.	.	16b|</JJ	.	16dd|>\JJ	.	.	.	16b\Jk	.	16b\Jk	.	.	.	.	.
4r	.	.	8r	.	16a|</LL	.	16cc|>\LL	.	.	.	4cc\	-de	4a\	-de	.	.	.	.
.	.	.	.	.	16g#|</	.	16b|>\	.	.	.	.	.	.	.	.	.	.	.
.	.	.	8c#X/	.	16f#|</	.	16a|>\	.	.	.	.	.	.	.	.	.	.	.
.	.	.	.	.	16e|</JJ	.	16g|>\JJ	.	.	.	.	.	.	.	.	.	.	.
!	!	!	!	!	!LO:LB:g=original	!	!	!	!	!	!	!	!	!	!	!	!	!
=40	=40	=40	=40	=40	=40	=40	=40	=40	=40	=40	=40	=40	=40	=40	=40	=40	=40	=40
!	!	!	!	!	!	!	!LO:TX:t=P:problem=mixed beam	!	!	!	!	!	!	!	!	!LO:DY:b:t=pian	!	!
8D\L	7	.	8d\L	.	8d/L	.	8f#/L	.	1ryy	1ryy	4a\	De-	4cc\	De-	8d/L	p	8d/L	.
8D\	.	.	8d\	.	(8a/	.	(8cc\	.	.	.	.	.	.	.	16d/L	.	16d/L	.
.	.	.	.	.	.	.	.	.	.	.	.	.	.	.	16d/JJ	.	16d/JJ	.
8D\	6 4	.	8d\	.	8g/	.	8b\	.	.	.	8.g\	-po-	8.b\	-po-	8d/L	.	8d/L	.
8D\J	5 3	.	8d\J	.	8f#/J)	.	8a\J)	.	.	.	.	.	.	.	8d/J	.	8d/J	.
.	.	.	.	.	.	.	.	.	.	.	16f#\	-su-	16a\	-su-	.	.	.	.
8D\L	6 4	.	8d\L	.	8g/L	.	8b\L	.	.	.	8g\	-it	8b\	-it	4d/	.	4d/	.
8D\	.	.	8d\	.	8a/J	.	8cc\J	.	.	.	8a\	po-	8cc\	po-	.	.	.	.
!	!	!	!	!	!	!	!	!	!	!	!LO:TX:a:t=//	!	!	!	!	!	!	!
8D\	.	.	8d\	.	[4b/	.	[4dd\	.	.	.	[4b\	-ten-	[4dd\	-ten-	4r	.	4r	.
8D\J	.	.	8d\J	.	.	.	.	.	.	.	.	.	.	.	.	.	.	.
!LO:LB:g=original	!	!	!	!	!	!	!	!	!	!	!	!	!	!	!LO:LB:g=original	!	!	!
=41	=41	=41	=41	=41	=41	=41	=41	=41	=41	=41	=41	=41	=41	=41	=41	=41	=41	=41
8D\L	8 6	.	8d\L	.	8b/L]	.	8dd\L]	.	1ryy	1ryy	8b\L]	.	8dd\L]	.	8d/L	.	8d/L	.
8D\	.	.	8d\	.	16a/L	.	16cc\L	.	.	.	16a\L	.	16cc\L	.	16d/L	.	16d/L	.
.	.	.	.	.	16g/JJ	.	16b\JJ	.	.	.	16g\JJ	.	16b\JJ	.	16d/JJ	.	16d/JJ	.
8D\	7 5	.	8d\	.	8a/L	.	8cc\L	.	.	.	8a\L	.	8cc\L	.	8d/L	.	8d/L	.
8D\J	5 3	.	8d\J	.	8f#/J	.	8a\J	.	.	.	8f#\J	.	8a\J	.	8d/J	.	8d/J	.
4G\	.	.	4d\	.	8g/L	.	(8b\L	.	.	.	8g\L	.	8b\L	.	4d/	.	4d/	.
.	.	.	.	.	8a/J	.	8cc\J)	.	.	.	8a\J	.	8cc\J	.	.	.	.	.
!	!	!	!	!	!	!	!	!	!	!	!LO:TX:a:t=vi	!	!	!	!	!	!	!
8r	.	.	8r	.	[4b/	.	[4dd\	.	.	.	[4b\	.	[4dd\	.	[4b\	.	[4dd\	.
8BB/	6	.	8g\	.	.	.	.	.	.	.	.	.	.	.	.	.	.	.
=42	=42	=42	=42	=42	=42	=42	=42	=42	=42	=42	=42	=42	=42	=42	=42	=42	=42	=42
!	!	!	!	!	!	!	!	!	!	!	!LO:TX:a:t=de	!	!	!	!	!	!	!
4.C/	9 7	.	4.e\	.	8b/L]	.	8dd\L]	.	1ryy	1ryy	8b\L]	.	8dd\L]	.	8b\L]	.	8dd\L]	.
.	8 6	.	.	.	16a/L	.	16cc\L	.	.	.	16a\L	.	16cc\L	.	16a\L	.	16cc\L	.
.	.	.	.	.	16g/JJ	.	16b\JJ	.	.	.	16g\JJ	.	16b\JJ	.	16g\JJ	.	16b\JJ	.
.	.	.	.	.	8a/L	.	8cc\L	.	.	.	8a\	-tes	8cc\	-tes	8a\L	.	8cc\L	.
8D/	.	.	8d\	.	8f#/J	.	(<8a\J	.	.	.	8f#\	de	8a\	de	8d\J	.	8a\J	.
.	.	.	.	.	8qqf#/	.	8qqa/)	.	.	.	.	.	.	.	8qqd/	.	8qqa/	.
[4GG/	.	.	2d\	.	2g/	.	2b/	.	.	.	8.g\L	se-	8.b\L	se-	4g\	.	4b\	.
.	.	.	.	.	.	.	.	.	.	.	16a\Jk	.	16a\Jk	.	.	.	.	.
!LO:TX:t=P:problem=mixed beam	!	!	!	!	!	!	!	!	!	!	!	!	!	!	!	!	!	!
16GG/LL]	.	.	.	.	.	.	.	.	.	.	4b\	-de	4g\	-de	4r	.	4r	.
16G|>\	.	.	.	.	.	.	.	.	.	.	.	.	.	.	.	.	.	.
16D|>\	.	.	.	.	.	.	.	.	.	.	.	.	.	.	.	.	.	.
16BB|>\JJ	.	.	.	.	.	.	.	.	.	.	.	.	.	.	.	.	.	.
!	!	!	!LO:LB:g=original	!	!	!	!	!	!	!	!	!	!	!	!	!	!	!
=43	=43	=43	=43	=43	=43	=43	=43	=43	=43	=43	=43	=43	=43	=43	=43	=43	=43	=43
!	!	!	!	!	!	!	!	!	!	!	!	!	!	!	!LO:TX:a:t=3.	!	!LO:TX:a:t=3.	!
8GG/L	.	.	8r	.	2dd\	.	2r	.	1ryy	1ryy	2r	.	8r	.	0r	.	0r	.
8GG/	.	.	8b\L	.	.	.	.	.	.	.	.	.	8dd\	et	.	.	.	.
8GG/	.	.	8b\	.	.	.	.	.	.	.	.	.	8dd\	ex-	.	.	.	.
8GG/J	.	.	8b\J	.	.	.	.	.	.	.	.	.	8dd\	-al-	.	.	.	.
8C/L	.	.	4g\	.	[2ee\	.	2gg\	.	.	.	8r	.	[2ee\	-ta-	.	.	.	.
8C/	.	.	.	.	.	.	.	.	.	.	8g\	et	.	.	.	.	.	.
8C/	.	.	[4cc\	.	.	.	.	.	.	.	8g\	ex-	.	.	.	.	.	.
8C/J	.	.	.	.	.	.	.	.	.	.	8g\	-al-	.	.	.	.	.	.
!	!	!	!	!	!	!	!LO:LB:g=original	!	!	!	!	!	!	!	!	!	!	!
=44	=44	=44	=44	=44	=44	=44	=44	=44	=44	=44	=44	=44	=44	=44	=44	=44	=44	=44
8F#\L	7	.	4cc\]	.	2ee\]	.	1aa	.	1ryy	1ryy	[2a\	-ta-	16ee\LL]	.	.	.	.	.
.	.	.	.	.	.	.	.	.	.	.	.	.	(16dd\	.	.	.	.	.
8F#\	.	.	.	.	.	.	.	.	.	.	.	.	16cc\	.	.	.	.	.
.	.	.	.	.	.	.	.	.	.	.	.	.	16dd\JJ)	.	.	.	.	.
8F#\	.	.	4a\	.	.	.	.	.	.	.	.	.	16ee\LL	.	.	.	.	.
.	.	.	.	.	.	.	.	.	.	.	.	.	16cc\	.	.	.	.	.
8F#\J	.	.	.	.	.	.	.	.	.	.	.	.	16b\	.	.	.	.	.
.	.	.	.	.	.	.	.	.	.	.	.	.	16a\JJ	.	.	.	.	.
!	!	!	!	!	!	!	!	!	!	!	!LO:LB:g=original	!	!LO:LB:g=original	!	!	!	!	!
=-	=-	=-	=-	=-	=-	=-	=-	=-	=-	=-	=-	=-	=-	=-	=-	=-	=-	=-
8BB/L	7	.	4f#\	.	[2dd\	.	.	.	.	.	16a\LL]	.	[2dd\	.	.	.	.	.
.	.	.	.	.	.	.	.	.	.	.	16g\	.	.	.	.	.	.	.
8BB/	.	.	.	.	.	.	.	.	.	.	16f#\	.	.	.	.	.	.	.
.	.	.	.	.	.	.	.	.	.	.	16g\JJ	.	.	.	.	.	.	.
8BB/	.	.	[4b\	.	.	.	.	.	.	.	16a\LL	.	.	.	.	.	.	.
.	.	.	.	.	.	.	.	.	.	.	16g\	.	.	.	.	.	.	.
8BB/J	.	.	.	.	.	.	.	.	.	.	16f#\	.	.	.	.	.	.	.
.	.	.	.	.	.	.	.	.	.	.	16e\JJ	.	.	.	.	.	.	.
=45	=45	=45	=45	=45	=45	=45	=45	=45	=45	=45	=45	=45	=45	=45	=45	=45	=45	=45
8E\L	7	.	4b\]	.	2dd\]	.	1gg	.	1ryy	1ryy	[2g\	.	16dd\LL]	.	1r	.	1r	.
.	.	.	.	.	.	.	.	.	.	.	.	.	(16cc\	.	.	.	.	.
8E\	.	.	.	.	.	.	.	.	.	.	.	.	16b\	.	.	.	.	.
.	.	.	.	.	.	.	.	.	.	.	.	.	16cc\JJ)	.	.	.	.	.
8E\	.	.	4g\	.	.	.	.	.	.	.	.	.	16dd\LL	.	.	.	.	.
.	.	.	.	.	.	.	.	.	.	.	.	.	16b\	.	.	.	.	.
8E\J	.	.	.	.	.	.	.	.	.	.	.	.	16a\	.	.	.	.	.
.	.	.	.	.	.	.	.	.	.	.	.	.	16g\JJ	.	.	.	.	.
!LO:LB:g=original	!	!	!	!	!	!	!	!	!	!	!	!	!	!	!	!	!	!
=-	=-	=-	=-	=-	=-	=-	=-	=-	=-	=-	=-	=-	=-	=-	=-	=-	=-	=-
8AA/L	7	.	4e\	.	[2cc\	.	.	.	.	.	16g\LL]	.	[2cc\	.	.	.	.	.
.	.	.	.	.	.	.	.	.	.	.	(16f#\	.	.	.	.	.	.	.
8AA/	.	.	.	.	.	.	.	.	.	.	16e\	.	.	.	.	.	.	.
.	.	.	.	.	.	.	.	.	.	.	16f#\JJ)	.	.	.	.	.	.	.
8AA/	.	.	[4a\	.	.	.	.	.	.	.	16g\LL	.	.	.	.	.	.	.
.	.	.	.	.	.	.	.	.	.	.	16e\	.	.	.	.	.	.	.
8AA/J	.	.	.	.	.	.	.	.	.	.	16d\	.	.	.	.	.	.	.
.	.	.	.	.	.	.	.	.	.	.	16c\JJ	.	.	.	.	.	.	.
=46	=46	=46	=46	=46	=46	=46	=46	=46	=46	=46	=46	=46	=46	=46	=46	=46	=46	=46
8D/L	.	.	4a\]	.	2cc\]	.	2ff#t\	.	1ryy	1ryy	2f#\	.	16cc\LL]	.	2r	.	2r	.
.	.	.	.	.	.	.	.	.	.	.	.	.	16b\	.	.	.	.	.
8D/	.	.	.	.	.	.	.	.	.	.	.	.	16a\	.	.	.	.	.
.	.	.	.	.	.	.	.	.	.	.	.	.	16b\JJ	.	.	.	.	.
8D/	.	.	4f#\	.	.	.	.	.	.	.	.	.	16cc\LL	.	.	.	.	.
.	.	.	.	.	.	.	.	.	.	.	.	.	16a\	.	.	.	.	.
8D/J	.	.	.	.	.	.	.	.	.	.	.	.	16g\	.	.	.	.	.
.	.	.	.	.	.	.	.	.	.	.	.	.	16f#\JJ	.	.	.	.	.
.	.	.	.	.	.	.	.	.	.	.	.	.	16qqg/LL	.	.	.	.	.
!	!	!	!	!	!	!	!LO:TX:t=P:problem=mixed beam	!	!	!	!	!	!	!	!	!	!	!
!LO:TX:t=P:problem=mixed beam	!	!	!	!	!	!	!	!	!	!	!	!	!	!	!	!	!	!
.	.	.	.	.	.	.	.	.	.	.	.	.	16qqa/JJ	.	.	.	.	.
16.GG/LL	.	.	(16d'\LL	.	16b/LL	.	16gg|>\LL	.	.	.	[2gT\	.	[2bt\	.	4g\	.	4b\	.
.	.	.	16d'\	.	(16g'/	.	(16b'/	.	.	.	.	.	.	.	.	.	.	.
32G\JJk	.	.	.	.	.	.	.	.	.	.	.	.	.	.	.	.	.	.
16.F#\LL	.	.	16d'\	.	16g'/	.	16b'/	.	.	.	.	.	.	.	.	.	.	.
.	.	.	16d'\JJ	.	16g'/JJ	.	16b'/JJ	.	.	.	.	.	.	.	.	.	.	.
32G\JJk	.	.	.	.	.	.	.	.	.	.	.	.	.	.	.	.	.	.
!LO:TX:t=P:problem=mixed beam	!	!	!	!	!	!	!	!	!	!	!	!	!	!	!	!	!	!
16.GG/LL	9 7	.	16d'\LL	.	16g'/LL	.	16b'/LL	.	.	.	.	.	.	.	4r	.	4r	.
.	.	.	16d'\	.	16g'/	.	16b'/	.	.	.	.	.	.	.	.	.	.	.
32G\JJk	.	.	.	.	.	.	.	.	.	.	.	.	.	.	.	.	.	.
16.F#\LL	.	.	16d'\	.	16g'/	.	16b'/	.	.	.	.	.	.	.	.	.	.	.
.	.	.	16d'\JJ)	.	16g'/JJ)	.	16b'/JJ)	.	.	.	.	.	.	.	.	.	.	.
32G\JJk	.	.	.	.	.	.	.	.	.	.	.	.	.	.	.	.	.	.
!	!	!	!	!	!LO:PB:g=original	!	!	!	!	!	!	!	!	!	!	!	!	!
=47	=47	=47	=47	=47	=47	=47	=47	=47	=47	=47	=47	=47	=47	=47	=47	=47	=47	=47
!	!	!	!	!	!	!	!LO:TX:t=P:problem=mixed beam	!	!	!	!	!	!	!	!	!	!	!
16.BB\LL	8 6	.	(16d'\LL	.	16b|</LL	.	16gg|>\LL	.	1ryy	1ryy	1g_	.	1bt_	.	4g\	.	4b\	.
.	.	.	16d'\	.	(16g'/	.	(16b'/	.	.	.	.	.	.	.	.	.	.	.
32G\JJk	.	.	.	.	.	.	.	.	.	.	.	.	.	.	.	.	.	.
16.F#\LL	.	.	16d'\	.	16g'/	.	16b'/	.	.	.	.	.	.	.	.	.	.	.
.	.	.	16d'\JJ	.	16g'/JJ	.	16b'/JJ	.	.	.	.	.	.	.	.	.	.	.
32G\JJk	.	.	.	.	.	.	.	.	.	.	.	.	.	.	.	.	.	.
16.C\LL	7 5	.	16e'\LL	.	16g'/LL	.	16b'/LL	.	.	.	.	.	.	.	4r	.	4r	.
.	.	.	16e'\	.	16g'/	.	16b'/	.	.	.	.	.	.	.	.	.	.	.
32G\JJk	.	.	.	.	.	.	.	.	.	.	.	.	.	.	.	.	.	.
16.F#\LL	.	.	16e'\	.	16g'/	.	16b'/	.	.	.	.	.	.	.	.	.	.	.
.	.	.	16e'\JJ)	.	16g'/JJ)	.	16b'/JJ)	.	.	.	.	.	.	.	.	.	.	.
32G\JJk	.	.	.	.	.	.	.	.	.	.	.	.	.	.	.	.	.	.
!	!	!	!	!	!	!	!LO:TX:t=P:problem=mixed beam	!	!	!	!	!	!	!	!	!	!	!
16.D\LL	6 4	.	(16d'\LL	.	16b|</LL	.	16gg|>\LL	.	.	.	.	.	.	.	4g\	.	4b\	.
.	.	.	16d'\	.	(16g'/	.	16b'/	.	.	.	.	.	.	.	.	.	.	.
32G\JJk	.	.	.	.	.	.	.	.	.	.	.	.	.	.	.	.	.	.
16.F#\LL	.	.	16d'\	.	16g'/	.	16b'/	.	.	.	.	.	.	.	.	.	.	.
.	.	.	16d'\JJ	.	16g'/JJ	.	16b'/JJ	.	.	.	.	.	.	.	.	.	.	.
32G\JJk	.	.	.	.	.	.	.	.	.	.	.	.	.	.	.	.	.	.
16.E\LL	6\ 5	.	16c#X'\LL	.	16g'/LL	.	(16b'/LL	.	.	.	.	.	.	.	4r	.	4r	.
.	.	.	16c#'\	.	16g'/	.	16b'/	.	.	.	.	.	.	.	.	.	.	.
32G\JJk	.	.	.	.	.	.	.	.	.	.	.	.	.	.	.	.	.	.
16.F#\LL	.	.	16c#'\	.	16g'/	.	16b'/	.	.	.	.	.	.	.	.	.	.	.
.	.	.	16c#'\JJ)	.	16g'/JJ)	.	16b'/JJ)	.	.	.	.	.	.	.	.	.	.	.
32G\JJk	.	.	.	.	.	.	.	.	.	.	.	.	.	.	.	.	.	.
=48	=48	=48	=48	=48	=48	=48	=48	=48	=48	=48	=48	=48	=48	=48	=48	=48	=48	=48
.	.	.	.	.	8qqa/	.	8qqcc/	.	.	.	.	.	.	.	.	.	.	.
!LO:TX:t=P:problem=mixed beam	!	!	!LO:TX:t=P:problem=mixed beam	!	!	!	!	!	!	!	!	!	!	!	!	!	!	!
8D\L	6 4	.	8d\L	.	8g/L	.	8b/L	.	1ryy	1ryy	8g\]	.	8b\]	.	8g\L	.	8b\L	.
8DD/J	5 3	.	8D/J	.	8f#/J	.	8a/J	.	.	.	8f#\	-vit	8a\	-vit	8d\J	.	8a\J	.
4r	.	.	4r	.	4r	.	4r	.	.	.	4r	.	4r	.	4r	.	4r	.
!LO:LB:g=original	!	!	!	!	!	!	!	!	!	!	!	!	!	!	!	!	!	!
=-	=-	=-	=-	=-	=-	=-	=-	=-	=-	=-	=-	=-	=-	=-	=-	=-	=-	=-
4D/	.	.	4d\	.	4ff#\	.	4d/ 4cc 4aa	.	.	.	4a\	et	4cc\	et	(4a\	.	(4cc\	.
4r	.	.	4r	.	4r	.	4r	.	.	.	8g\	ex-	8b\	ex-	8g\L)	.	8b\L)	.
.	.	.	.	.	.	.	.	.	.	.	8f#\	-al-	8a\	-al-	8d|>\J	.	8a|>\J	.
!	!	!	!	!	!	!	!	!	!	!	!	!	!	!	!	!	!LO:LB:g=original	!
=49	=49	=49	=49	=49	=49	=49	=49	=49	=49	=49	=49	=49	=49	=49	=49	=49	=49	=49
.	.	.	.	.	.	.	.	.	.	.	.	.	.	.	.	.	8qqa/	.
!	!	!	!	!	!	!LO:DY:b:t=po.	!	!LO:DY:b:t=po.	!	!	!	!	!	!	!	!	!	!
8GG/L	.	.	8g\L	.	8b\L	p	8dd\L	p	1ryy	1ryy	16g\LL	-ta-	16b\LL	-ta-	4G/	.	4b\	.
.	.	.	.	.	.	.	.	.	.	.	16a\JJ	.	16cc\JJ	.	.	.	.	.
8GG/	.	.	8b\	.	8dd\	.	8gg\	.	.	.	8.b\L	.	8.dd\L	.	.	.	.	.
8GG/	.	.	8b\	.	8dd\	.	8gg\	.	.	.	.	.	.	.	4r	.	4r	.
.	.	.	.	.	.	.	.	.	.	.	16g\L	.	16b\L	.	.	.	.	.
8GG/J	.	.	8b\J	.	8dd\J	.	8gg\J	.	.	.	16a\	.	16cc\	.	.	.	.	.
.	.	.	.	.	.	.	.	.	.	.	16b\JJ	.	16dd\JJ	.	.	.	.	.
*	*	*	*	*	*	*	*	*	*	*	*custos:a	*	*	*	*	*	*	*
!	!	!	!	!	!	!	!	!	!	!	!LO:LB:g=original	!	!	!	!	!	!	!
=-	=-	=-	=-	=-	=-	=-	=-	=-	=-	=-	=-	=-	=-	=-	=-	=-	=-	=-
8AA/L	.	.	8a\L	.	8cc\L	.	8ff#\L	.	.	.	16a\LL	.	16cc\LL	.	2r	.	2r	.
.	.	.	.	.	.	.	.	.	.	.	16a\J	.	16dd\JJ	.	.	.	.	.
8AA/	.	.	8cc\	.	8ee\	.	8aa\	.	.	.	8.cc\J	.	8.ee\L	.	.	.	.	.
8AA/	.	.	8cc\	.	8ee\	.	8aa\	.	.	.	.	.	.	.	.	.	.	.
.	.	.	.	.	.	.	.	.	.	.	16a\LL	.	16cc\L	.	.	.	.	.
8AA/J	.	.	8cc\J	.	8ee\J	.	8aa\J	.	.	.	16b\	.	16dd\	.	.	.	.	.
.	.	.	.	.	.	.	.	.	.	.	16cc\JJ	.	16ee\JJ	.	.	.	.	.
!	!	!	!LO:LB:g=original	!	!	!	!	!	!	!	!	!	!LO:LB:g=original	!	!	!	!	!
=50	=50	=50	=50	=50	=50	=50	=50	=50	=50	=50	=50	=50	=50	=50	=50	=50	=50	=50
!	!	!	!	!	!	!	!	!	!	!	!	!	!	!	!LO:TX:a:t=7.	!	!LO:TX:a:t=7.	!
8BB/L	6 5-	.	8g\L	.	8dd\L	.	8ffn\L	.	1ryy	1ryy	16b\LL	.	16dd\LL	.	00r	.	00r	.
.	.	.	.	.	.	.	.	.	.	.	16cc\J	.	16ee\JJ	.	.	.	.	.
8BB/	.	.	8g\	.	8dd\	.	8ff\	.	.	.	8.dd\J	.	8.ffn\L	.	.	.	.	.
8BB/	.	.	8g\	.	8dd\	.	8ff\	.	.	.	.	.	.	.	.	.	.	.
.	.	.	.	.	.	.	.	.	.	.	16b\LL	.	16dd\L	.	.	.	.	.
8BB/J	.	.	8g\J	.	8dd\J	.	8ff\J	.	.	.	16cc\	.	16ee\	.	.	.	.	.
.	.	.	.	.	.	.	.	.	.	.	16dd\JJ	.	16ffn\JJ	.	.	.	.	.
!	!	!	!	!	!	!	!LO:LB:g=original	!	!	!	!	!	!	!	!	!	!	!
=-	=-	=-	=-	=-	=-	=-	=-	=-	=-	=-	=-	=-	=-	=-	=-	=-	=-	=-
!	!	!	!	!	!	!	!	!	!	!	!LO:TUP:a:problem=klamra łukowa	!	!	!	!	!	!	!
8C/L	.	.	2g\	.	[2cc\	.	[2ee\	.	.	.	24g\LL	.	16ee\	.	.	.	.	.
.	.	.	.	.	.	.	.	.	.	.	24a\	.	.	.	.	.	.	.
.	.	.	.	.	.	.	.	.	.	.	.	.	8ee\	.	.	.	.	.
.	.	.	.	.	.	.	.	.	.	.	24b\JJ	.	.	.	.	.	.	.
8C/	.	.	.	.	.	.	.	.	.	.	(16cc\LL	.	.	.	.	.	.	.
.	.	.	.	.	.	.	.	.	.	.	16dd\JJ)	.	8ee\	.	.	.	.	.
8C/	.	.	.	.	.	.	.	.	.	.	16cc\LL	.	.	.	.	.	.	.
.	.	.	.	.	.	.	.	.	.	.	16b\	.	8ee\	.	.	.	.	.
8C/J	.	.	.	.	.	.	.	.	.	.	16a\	.	.	.	.	.	.	.
.	.	.	.	.	.	.	.	.	.	.	16g\JJ	.	[16ee\	.	.	.	.	.
=51	=51	=51	=51	=51	=51	=51	=51	=51	=51	=51	=51	=51	=51	=51	=51	=51	=51	=51
8A\L	6\ 5	.	1f#	.	2cc\]	.	2ee\]	.	1ryy	1ryy	16f#\	.	8ee\L]	.	.	.	.	.
.	.	.	.	.	.	.	.	.	.	.	8f#\	.	.	.	.	.	.	.
8A\	.	.	.	.	.	.	.	.	.	.	.	.	16.ff#X\L	.	.	.	.	.
.	.	.	.	.	.	.	.	.	.	.	8f#\	.	.	.	.	.	.	.
.	.	.	.	.	.	.	.	.	.	.	.	.	32gg\JJk	.	.	.	.	.
!	!	!	!	!	!	!	!	!	!	!	!	!	!LO:TUP:a:problem=klamra łukowa	!	!	!	!	!
8A\	.	.	.	.	.	.	.	.	.	.	.	.	24aa\LL	.	.	.	.	.
.	.	.	.	.	.	.	.	.	.	.	.	.	24gg\	.	.	.	.	.
.	.	.	.	.	.	.	.	.	.	.	8f#\	.	.	.	.	.	.	.
.	.	.	.	.	.	.	.	.	.	.	.	.	24ff#\JJ	.	.	.	.	.
!	!	!	!	!	!	!	!	!	!	!	!	!	!LO:TUP:a:problem=klamra łukowa	!	!	!	!	!
8A\J	.	.	.	.	.	.	.	.	.	.	.	.	24ee\LL	.	.	.	.	.
.	.	.	.	.	.	.	.	.	.	.	.	.	24dd\	.	.	.	.	.
.	.	.	.	.	.	.	.	.	.	.	[16f#\	.	.	.	.	.	.	.
.	.	.	.	.	.	.	.	.	.	.	.	.	24cc\JJ	.	.	.	.	.
!	!	!	!	!	!	!	!	!	!	!	!LO:TUP:a:problem=klamra łukowa	!	!	!	!	!	!	!
8BB/L	.	.	.	.	[2b\	.	[2dd\	.	.	.	24f#\LL]	.	16dd\	.	.	.	.	.
.	.	.	.	.	.	.	.	.	.	.	24g\	.	.	.	.	.	.	.
.	.	.	.	.	.	.	.	.	.	.	.	.	8dd\	.	.	.	.	.
.	.	.	.	.	.	.	.	.	.	.	24a\JJ	.	.	.	.	.	.	.
8BB/	.	.	.	.	.	.	.	.	.	.	16b\LL	.	.	.	.	.	.	.
.	.	.	.	.	.	.	.	.	.	.	16cc\JJ	.	8dd\	.	.	.	.	.
8BB/	.	.	.	.	.	.	.	.	.	.	16b\LL	.	.	.	.	.	.	.
.	.	.	.	.	.	.	.	.	.	.	16a\	.	8dd\	.	.	.	.	.
8BB/J	.	.	.	.	.	.	.	.	.	.	16g\	.	.	.	.	.	.	.
.	.	.	.	.	.	.	.	.	.	.	16f#\JJ	.	[16dd\	.	.	.	.	.
=52	=52	=52	=52	=52	=52	=52	=52	=52	=52	=52	=52	=52	=52	=52	=52	=52	=52	=52
8G\L	6 5	.	1e	.	2b\]	.	2dd\]	.	1ryy	1ryy	16e\	.	8dd\L]	.	.	.	.	.
.	.	.	.	.	.	.	.	.	.	.	8e\	.	.	.	.	.	.	.
8G\	.	.	.	.	.	.	.	.	.	.	.	.	16.ee\L	.	.	.	.	.
.	.	.	.	.	.	.	.	.	.	.	8e\	.	.	.	.	.	.	.
.	.	.	.	.	.	.	.	.	.	.	.	.	32ff#\JJk	.	.	.	.	.
!	!	!	!	!	!	!	!	!	!	!	!	!	!LO:TUP:a:problem=klamra łukowa	!	!	!	!	!
8G\	.	.	.	.	.	.	.	.	.	.	.	.	24gg\LL	.	.	.	.	.
.	.	.	.	.	.	.	.	.	.	.	.	.	24ff#\	.	.	.	.	.
.	.	.	.	.	.	.	.	.	.	.	8e\	.	.	.	.	.	.	.
.	.	.	.	.	.	.	.	.	.	.	.	.	24ee\JJ	.	.	.	.	.
!	!	!	!	!	!	!	!	!	!	!	!	!	!LO:TUP:a:problem=klamra łukowa	!	!	!	!	!
8G\J	.	.	.	.	.	.	.	.	.	.	.	.	24dd\LL	.	.	.	.	.
.	.	.	.	.	.	.	.	.	.	.	.	.	24cc\	.	.	.	.	.
.	.	.	.	.	.	.	.	.	.	.	[16e\	.	.	.	.	.	.	.
*	*	*	*	*	*	*	*	*	*	*	*custos:e	*	*	*	*	*	*	*
.	.	.	.	.	.	.	.	.	.	.	.	.	24b\JJ	.	.	.	.	.
!	!	!	!	!	!	!	!	!	!	!	!LO:LB:g=original	!	!	!	!	!	!	!
=-	=-	=-	=-	=-	=-	=-	=-	=-	=-	=-	=-	=-	=-	=-	=-	=-	=-	=-
!	!	!	!	!	!	!	!	!	!	!	!LO:TUP:a:problem=klamra łukowa	!	!	!	!	!	!	!
8AA/L	.	.	.	.	[2a/	.	[2cc\	.	.	.	24e\LL]	.	16cc\	.	.	.	.	.
.	.	.	.	.	.	.	.	.	.	.	24f#\	.	.	.	.	.	.	.
.	.	.	.	.	.	.	.	.	.	.	.	.	8cc\	.	.	.	.	.
.	.	.	.	.	.	.	.	.	.	.	24g\JJ	.	.	.	.	.	.	.
!	!	!	!	!	!	!	!	!	!	!	!LO:TX:a:t=a	!	!	!	!	!	!	!
8AA/	.	.	.	.	.	.	.	.	.	.	16a\LL	.	.	.	.	.	.	.
.	.	.	.	.	.	.	.	.	.	.	16b\JJ	.	8cc\	.	.	.	.	.
8AA/	.	.	.	.	.	.	.	.	.	.	16a\LL	.	.	.	.	.	.	.
.	.	.	.	.	.	.	.	.	.	.	16g\	.	8cc\	.	.	.	.	.
8AA/J	.	.	.	.	.	.	.	.	.	.	16f#\	.	.	.	.	.	.	.
.	.	.	.	.	.	.	.	.	.	.	16e\JJ	.	[16cc\	.	.	.	.	.
!LO:LB:g=original	!	!	!	!	!LO:LB:g=original	!	!	!	!	!	!	!	!LO:LB:g=original	!	!	!	!	!
=53	=53	=53	=53	=53	=53	=53	=53	=53	=53	=53	=53	=53	=53	=53	=53	=53	=53	=53
8F#\L	6 5	.	2d\	.	2a/]	.	2cc\]	.	1ryy	1ryy	16d\	.	8cc\L]	.	.	.	.	.
.	.	.	.	.	.	.	.	.	.	.	8d\	.	.	.	.	.	.	.
8F#\	.	.	.	.	.	.	.	.	.	.	.	.	16.dd\L	.	.	.	.	.
.	.	.	.	.	.	.	.	.	.	.	8d\	.	.	.	.	.	.	.
.	.	.	.	.	.	.	.	.	.	.	.	.	32ee\JJk	.	.	.	.	.
!	!	!	!	!	!	!	!	!	!	!	!	!	!LO:TUP:a:problem=klamra łukowa	!	!	!	!	!
8F#\	.	.	.	.	.	.	.	.	.	.	.	.	24ff#\LL	.	.	.	.	.
.	.	.	.	.	.	.	.	.	.	.	.	.	24gg\	.	.	.	.	.
.	.	.	.	.	.	.	.	.	.	.	8d\	.	.	.	.	.	.	.
.	.	.	.	.	.	.	.	.	.	.	.	.	24aa\JJ	.	.	.	.	.
!	!	!	!	!	!	!	!	!	!	!	!	!	!LO:TUP:a:problem=klamra łukowa	!	!	!	!	!
8F#\J	.	.	.	.	.	.	.	.	.	.	.	.	24a\LL	.	.	.	.	.
.	.	.	.	.	.	.	.	.	.	.	.	.	24b\	.	.	.	.	.
.	.	.	.	.	.	.	.	.	.	.	16d\	.	.	.	.	.	.	.
.	.	.	.	.	.	.	.	.	.	.	.	.	24cc\JJ	.	.	.	.	.
!	!	!	!	!	!LO:TX:t=P:problem=mixed beam	!	!	!	!	!	!	!	!	!	!	!	!	!
8G\L	.	.	8d\L	.	8g/L	.	8b\	.	.	.	8.gT\L	.	8.bt\L	.	.	.	.	.
8G\	.	.	8b\	.	8dd\	.	4gg\	.	.	.	.	.	.	.	.	.	.	.
.	.	.	.	.	.	.	.	.	.	.	32f#\LL	.	(32a\LL	.	.	.	.	.
.	.	.	.	.	.	.	.	.	.	.	32g\JJJ	.	32b\JJJ)	.	.	.	.	.
8d\	7 4	.	8a\	.	8cc\	.	.	.	.	.	8.aT\L	.	8.ccT\L	.	.	.	.	.
8d\J	3	.	8a\J	.	8cc\J	.	8ff#\	.	.	.	.	.	.	.	.	.	.	.
.	.	.	.	.	.	.	.	.	.	.	32g\LL	.	(32b\LL	.	.	.	.	.
.	.	.	.	.	.	.	.	.	.	.	32f#\JJJ	.	32a\JJJ)	.	.	.	.	.
=54	=54	=54	=54	=54	=54	=54	=54	=54	=54	=54	=54	=54	=54	=54	=54	=54	=54	=54
8G\L	.	.	8g\L	.	8b\L	.	8gg\	.	1ryy	1ryy	8.gT\L	.	8.bt\L	.	0r	.	0r	.
8G\	.	.	8b\	.	8dd\	.	4gg\	.	.	.	.	.	.	.	.	.	.	.
.	.	.	.	.	.	.	.	.	.	.	(32f#\LL	.	(32a\LL	.	.	.	.	.
.	.	.	.	.	.	.	.	.	.	.	32g\JJJ)	.	32b\JJJ)	.	.	.	.	.
8D\	7 4	.	8a\	.	8cc\	.	.	.	.	.	8.aT\L	.	8.ccT\L	.	.	.	.	.
8D\J	3	.	8a\J	.	8cc\J	.	8ff#\	.	.	.	.	.	.	.	.	.	.	.
.	.	.	.	.	.	.	.	.	.	.	32g\LL	.	(32b\LL	.	.	.	.	.
.	.	.	.	.	.	.	.	.	.	.	32f#\JJJ	.	32a\JJJ)	.	.	.	.	.
!LO:TX:t=P:problem=mixed beam	!	!	!	!	!	!	!	!	!	!	!LO:TUP:a:problem=klamra łukowa	!	!LO:TUP:a:problem=klamra łukowa	!	!	!	!	!
8G\L	.	.	8g\L	.	8b\L	.	8gg\L	.	.	.	24g\LL	.	24b\LL	.	.	.	.	.
.	.	.	.	.	.	.	.	.	.	.	24a\	.	24cc\	.	.	.	.	.
.	.	.	.	.	.	.	.	.	.	.	24b\JJ	.	24dd\JJ	.	.	.	.	.
!	!	!	!	!	!	!	!	!	!	!	!LO:TUP:a:problem=klamra łukowa	!	!LO:TUP:a:problem=klamra łukowa	!	!	!	!	!
8C\	6	.	8g\	.	8cc\J	.	8ee\	.	.	.	24cc\LL	-vit	24ee\LL	-vit	.	.	.	.
.	.	.	.	.	.	.	.	.	.	.	24b\	.	24dd\	.	.	.	.	.
.	.	.	.	.	.	.	.	.	.	.	24a\JJ	.	24cc\JJ	.	.	.	.	.
.	.	.	.	.	.	.	.	.	.	.	8qqg/	.	8qqg/ 8qqb	.	.	.	.	.
8D\	.	.	8f#\	.	4aT/	.	8dd\	.	.	.	8.f#\	hu-	8.a\	hu-	.	.	.	.
8DD/J	7	.	8f#\J	.	.	.	8ccT\J	.	.	.	.	.	.	.	.	.	.	.
.	.	.	.	.	.	.	.	.	.	.	16f#\	-mi-	16a\	-mi-	.	.	.	.
=55	=55	=55	=55	=55	=55	=55	=55	=55	=55	=55	=55	=55	=55	=55	=55	=55	=55	=55
!LO:TX:t=P:problem=mixed beam	!	!	!	!	!	!	!	!	!	!	!	!	!	!	!	!	!	!
8GG/L	.	.	4d\	.	4g/	.	4b/	.	1ryy	1ryy	4g\	-les	4g/	-les	.	.	.	.
8B\	6	.	.	.	.	.	.	.	.	.	.	.	.	.	.	.	.	.
8A\	6	.	4r	.	4r	.	4r	.	.	.	4r	.	4r	.	.	.	.	.
8G\J	6	.	.	.	.	.	.	.	.	.	.	.	.	.	.	.	.	.
8F#\L	6	.	2r	.	2r	.	2r	.	.	.	8r	.	8r	.	.	.	.	.
8E\	6	.	.	.	.	.	.	.	.	.	8g\	et	8cc\	et	.	.	.	.
8D\	6	.	.	.	.	.	.	.	.	.	8f#\	ex-	8b\	ex-	.	.	.	.
8C\J	6	.	.	.	.	.	.	.	.	.	8e\	-al-	8a\	-al-	.	.	.	.
!	!	!	!	!	!	!	!	!	!	!	!LO:LB:g=original	!	!	!	!	!	!	!
=56	=56	=56	=56	=56	=56	=56	=56	=56	=56	=56	=56	=56	=56	=56	=56	=56	=56	=56
!	!	!	!	!	!LO:TX:a:t=1.	!	!LO:TX:a:t=1.	!	!	!	!	!	!LO:TX:t=P:problem=mixed beam	!	!LO:TX:b:i:t=Volti	!	!	!
8BB/L	6	.	1r	.	1r	.	1r	.	1ryy	1ryy	4.d\	-ta-	(8dd\L	-ta-	1r	.	1r	.
8AA/	6	.	.	.	.	.	.	.	.	.	.	.	8f#/)	.	.	.	.	.
8BB/	6	.	.	.	.	.	.	.	.	.	.	.	8g/J	.	.	.	.	.
8C/J	.	.	.	.	.	.	.	.	.	.	8e\	-vit	8cc\	-vit	.	.	.	.
.	.	.	.	.	.	.	.	.	.	.	.	.	8qqb/	.	.	.	.	.
8D/L	6 4	.	.	.	.	.	.	.	.	.	4.f#\	hu-	4.a\	hu-	.	.	.	.
8D/	.	.	.	.	.	.	.	.	.	.	.	.	.	.	.	.	.	.
8DD/	7 3	.	.	.	.	.	.	.	.	.	.	.	.	.	.	.	.	.
8DD/J	.	.	.	.	.	.	.	.	.	.	8f#\	-mi-	8g\	-mi-	.	.	.	.
!	!	!	!	!	!	!	!	!	!	!	!	!	!LO:LB:g=original	!	!LO:PB:g=original	!	!	!
=57	=57	=57	=57	=57	=57	=57	=57	=57	=57	=57	=57	=57	=57	=57	=57	=57	=57	=57
!	!	!LO:DY:b:t=for	!	!LO:DY:b:t=fr	!	!LO:DY:b:t=for	!	!	!	!	!	!	!	!	!	!	!	!
4GG/	.	f	4d\	f	8.g/L	f	8.bt\L	.	1ryy	1ryy	4g\	-les	4g/	-les	2r	.	2r	.
.	.	.	.	.	16a/Jk	.	16cc\Jk	.	.	.	.	.	.	.	.	.	.	.
4G\	.	.	4d\	.	16g|</LL	.	16b\LL	.	.	.	4r	.	4r	.	.	.	.	.
.	.	.	.	.	(16g/	.	16b\	.	.	.	.	.	.	.	.	.	.	.
.	.	.	.	.	16a/	.	16cc\	.	.	.	.	.	.	.	.	.	.	.
.	.	.	.	.	16b/JJ)	.	16dd\JJ	.	.	.	.	.	.	.	.	.	.	.
.	.	.	.	.	8qqa/	.	8qqcc/	.	.	.	.	.	.	.	.	.	.	.
!LO:LB:g=original	!	!	!	!	!	!	!	!	!	!	!	!	!	!	!	!	!	!
=-	=-	=-	=-	=-	=-	=-	=-	=-	=-	=-	=-	=-	=-	=-	=-	=-	=-	=-
!	!	!	!	!	!	!	!	!	!	!	!	!	!	!	!	!LO:DY:b:t=fr	!	!LO:DY:b:t=for
4GG/	.	.	4d\	.	8.g/L	.	8.b\L	.	.	.	2r	.	2r	.	8.g\L	f	8.b\L	f
.	.	.	.	.	16a/Jk	.	16cc\Jk	.	.	.	.	.	.	.	16a\Jk	.	16cc\Jk	.
4r	.	.	4r	.	4b/	.	4dd\	.	.	.	.	.	.	.	8g\L	.	8b\L	.
.	.	.	.	.	.	.	.	.	.	.	.	.	.	.	8b\J	.	8dd\J	.
=58	=58	=58	=58	=58	=58	=58	=58	=58	=58	=58	=58	=58	=58	=58	=58	=58	=58	=58
.	.	.	.	.	.	.	.	.	.	.	.	.	.	.	8qqb/	.	8qqdd/	.
4d\	7	.	4f#\	.	(16a\LL	.	(16cc\LL	.	1ryy	1ryy	00r	.	00r	.	2a\	.	2cc\	.
.	.	.	.	.	16cc\)	.	16ff#\)	.	.	.	.	.	.	.	.	.	.	.
.	.	.	.	.	(16ff#\	.	(16aa\	.	.	.	.	.	.	.	.	.	.	.
.	.	.	.	.	16ee\JJ)	.	16gg\JJ)	.	.	.	.	.	.	.	.	.	.	.
4D\	.	.	4f#\	.	(16dd\LL	.	(16ff#\LL	.	.	.	.	.	.	.	.	.	.	.
.	.	.	.	.	16cc\)	.	16ee\)	.	.	.	.	.	.	.	.	.	.	.
.	.	.	.	.	(16b\	.	(16dd\	.	.	.	.	.	.	.	.	.	.	.
.	.	.	.	.	16a\JJ)	.	16cc\JJ)	.	.	.	.	.	.	.	.	.	.	.
!	!	!	!	!	!	!	!LO:LB:g=original	!	!	!	!	!	!	!	!	!	!	!
=-	=-	=-	=-	=-	=-	=-	=-	=-	=-	=-	=-	=-	=-	=-	=-	=-	=-	=-
.	.	.	.	.	8qqa/	.	8qqcc/	.	.	.	.	.	.	.	.	.	.	.
4G\	.	.	4d\	.	8.g/L	.	8.b\L	.	.	.	.	.	.	.	8.g\L	.	8.b\L	.
.	.	.	.	.	16a/Jk	.	16cc\Jk	.	.	.	.	.	.	.	16a\Jk	.	16cc\Jk	.
4r	.	.	4r	.	4b/	.	4dd\	.	.	.	.	.	.	.	8g\L	.	8b\L	.
.	.	.	.	.	.	.	.	.	.	.	.	.	.	.	8b\J	.	8dd\J	.
!	!	!	!	!	!LO:LB:g=original	!	!	!	!	!	!	!	!	!	!	!	!	!
=59	=59	=59	=59	=59	=59	=59	=59	=59	=59	=59	=59	=59	=59	=59	=59	=59	=59	=59
.	.	.	.	.	.	.	.	.	.	.	.	.	.	.	8qqb/	.	8qqdd/	.
4d\	7	.	4f#\	.	(16a\LL	.	(16cc\LL	.	1ryy	1ryy	.	.	.	.	2a\	.	2cc\	.
.	.	.	.	.	16cc\)	.	16ff#\)	.	.	.	.	.	.	.	.	.	.	.
.	.	.	.	.	(16ff#\	.	(16aa\	.	.	.	.	.	.	.	.	.	.	.
.	.	.	.	.	16ee\JJ)	.	16gg\JJ)	.	.	.	.	.	.	.	.	.	.	.
4D\	.	.	4f#\	.	(16dd\LL	.	(16ff#\LL	.	.	.	.	.	.	.	.	.	.	.
.	.	.	.	.	16cc\)	.	16ee\)	.	.	.	.	.	.	.	.	.	.	.
.	.	.	.	.	(16b\	.	(16dd\	.	.	.	.	.	.	.	.	.	.	.
.	.	.	.	.	16a\JJ)	.	16cc\JJ)	.	.	.	.	.	.	.	.	.	.	.
.	.	.	.	.	.	.	8qqcc/	.	.	.	.	.	.	.	.	.	.	.
!	!	!	!	!	!LO:TUP:b:problem=klamra łukowa	!	!LO:TUP:a:problem=klamra łukowa	!	!	!	!	!	!	!	!	!	!	!
8G\L	.	.	8d\L	.	24g/LL	.	24b\LL	.	.	.	.	.	.	.	8g\L	.	8b\L	.
.	.	.	.	.	24a/	.	24cc\	.	.	.	.	.	.	.	.	.	.	.
.	.	.	.	.	24b/JJ	.	24dd\JJ	.	.	.	.	.	.	.	.	.	.	.
!	!	!	!	!	!LO:TUP:a:problem=klamra łukowa	!	!LO:TUP:a:problem=klamra łukowa	!	!	!	!	!	!	!	!	!	!	!
8C\J	.	.	8c\J	.	24cc\LL	.	24ee\LL	.	.	.	.	.	.	.	8g\J	.	8cc\J	.
.	.	.	.	.	24dd\	.	24ff#\	.	.	.	.	.	.	.	.	.	.	.
.	.	.	.	.	24ee\JJ	.	24gg\JJ	.	.	.	.	.	.	.	.	.	.	.
!	!	!	!	!	!LO:TUP:a:problem=klamra łukowa	!	!LO:TUP:a:problem=klamra łukowa	!	!	!	!	!	!	!	!	!	!	!
8r	.	.	8r	.	24dd\LL	.	24ff#\LL	.	.	.	.	.	.	.	8r	.	8r	.
.	.	.	.	.	24cc\	.	24ee\	.	.	.	.	.	.	.	.	.	.	.
.	.	.	.	.	24b\JJ	.	24dd\JJ	.	.	.	.	.	.	.	.	.	.	.
!	!	!	!	!	!LO:TUP:b:problem=klamra łukowa	!	!LO:TUP:a:problem=klamra łukowa	!	!	!	!	!	!	!	!	!	!	!
8D\	7	.	8f#\	.	24a/LL	.	24cc\LL	.	.	.	.	.	.	.	8a\	.	8cc\	.
.	.	.	.	.	24g/	.	24b\	.	.	.	.	.	.	.	.	.	.	.
.	.	.	.	.	24f#/JJ	.	24a\JJ	.	.	.	.	.	.	.	.	.	.	.
=60	=60	=60	=60	=60	=60	=60	=60	=60	=60	=60	=60	=60	=60	=60	=60	=60	=60	=60
8r	.	.	8r	.	4g/	.	4b/	.	1ryy	1ryy	.	.	.	.	4g\	.	4b\	.
8BB/L	6	.	8d\L	.	.	.	.	.	.	.	.	.	.	.	.	.	.	.
!	!	!	!	!	!	!	!	!	!	!	!	!	!	!	!	!	!LO:TX:a:t=t.	!
8C/	4 2	.	8d\	.	4f#t/	.	4aT/	.	.	.	.	.	.	.	4d/	.	4a\	.
8D/J	7	.	8d\J	.	.	.	.	.	.	.	.	.	.	.	.	.	.	.
8G\L	.	.	4d\	.	16g|</LL	.	16g\LL	.	.	.	.	.	.	.	4B/	.	4g\	.
.	.	.	.	.	(32b/L	.	(32gg\L	.	.	.	.	.	.	.	.	.	.	.
.	.	.	.	.	32cc/J)	.	32aa\J)	.	.	.	.	.	.	.	.	.	.	.
8G\	.	.	.	.	16b|</	.	16gg|>\	.	.	.	.	.	.	.	.	.	.	.
.	.	.	.	.	16b|</JJ	.	16gg|>\JJ	.	.	.	.	.	.	.	.	.	.	.
8F#\	4 2	.	4r	.	[4bt/	.	[4ggT\	.	.	.	.	.	.	.	16r	.	16r	.
.	.	.	.	.	.	.	.	.	.	.	.	.	.	.	(32g\LLL	.	(32b\LLL	.
.	.	.	.	.	.	.	.	.	.	.	.	.	.	.	32a\J)	.	32cc\J)	.
8F#\J	.	.	.	.	.	.	.	.	.	.	.	.	.	.	16g|>\	.	16b\	.
.	.	.	.	.	.	.	.	.	.	.	.	.	.	.	16g|>\JJ	.	16b\JJ	.
=61	=61	=61	=61	=61	=61	=61	=61	=61	=61	=61	=61	=61	=61	=61	=61	=61	=61	=61
!	!	!	!	!	!	!	!	!	!	!	!	!	!	!	!LO:TX:a:t=t	!	!LO:TX:a:t=t	!
8E\L	5	.	8g\L	.	16b/LL]	.	16gg\LL]	.	1ryy	1ryy	.	.	.	.	(4g\	.	(4b\	.
.	.	.	.	.	(32b/L	.	(32gg\L	.	.	.	.	.	.	.	.	.	.	.
.	.	.	.	.	32cc/J)	.	32aa\J)	.	.	.	.	.	.	.	.	.	.	.
8E\	.	.	8g\	.	16b/	.	16gg|>\	.	.	.	.	.	.	.	.	.	.	.
.	.	.	.	.	16b/JJ	.	16gg|>\JJ	.	.	.	.	.	.	.	.	.	.	.
8D\	6 4 3	.	8f#\	.	4bt/	.	4ggT\	.	.	.	.	.	.	.	16g\LL)	.	16b\LL)	.
.	.	.	.	.	.	.	.	.	.	.	.	.	.	.	(32g\L	.	(32b\L	.
.	.	.	.	.	.	.	.	.	.	.	.	.	.	.	32a\J)	.	32cc\J)	.
8D\J	.	.	8f#\J	.	.	.	.	.	.	.	.	.	.	.	16g|>\	.	16b\	.
.	.	.	.	.	.	.	.	.	.	.	.	.	.	.	16g|>\JJ	.	16b\JJ	.
!	!	!	!LO:LB:g=original	!	!	!	!	!	!	!	!	!	!	!	!	!	!	!
=-	=-	=-	=-	=-	=-	=-	=-	=-	=-	=-	=-	=-	=-	=-	=-	=-	=-	=-
.	.	.	.	.	16qqcc/LL	.	16qqaa/LL	.	.	.	.	.	.	.	.	.	.	.
.	.	.	.	.	16qqdd/JJ	.	16qqbb/JJ	.	.	.	.	.	.	.	.	.	.	.
8C\L	6	.	8e\L	.	8.eeT\L	.	8.ccc\L	.	.	.	.	.	.	.	(4a\	.	(4cc\	.
8A\J	.	.	8e\	.	.	.	.	.	.	.	.	.	.	.	.	.	.	.
.	.	.	.	.	32dd\LL	.	32bb\LL	.	.	.	.	.	.	.	.	.	.	.
.	.	.	.	.	32cc\JJJ	.	32aa\JJJ	.	.	.	.	.	.	.	.	.	.	.
8d\L	6 4	.	8d\	.	8b/L	.	8gg\L	.	.	.	.	.	.	.	8g\L)	.	8b\L)	.
8D\J	5 3	.	8d\J	.	8aT/J	.	8ff#\J	.	.	.	.	.	.	.	8d|>\J	.	8a|>\J	.
=62	=62	=62	=62	=62	=62	=62	=62	=62	=62	=62	=62	=62	=62	=62	=62	=62	=62	=62
.	.	.	.	.	.	.	.	.	.	.	.	.	.	.	8qqf#/	.	8qqa/	.
!	!	!LO:DY:b:t=pian	!	!LO:DY:b:t=po.	!	!	!	!LO:DY:b:t=po.	!	!	!	!	!	!	!	!	!	!
8G\L	.	p	4d\	p	16b|</LL	.	16gg|>\LL	p	1ryy	1ryy	0r;>	.	0r	.	4g\	.	4b\	.
.	.	.	.	.	(32b/L	.	(32gg\L	.	.	.	.	.	.	.	.	.	.	.
.	.	.	.	.	32cc/J)	.	32aa\J)	.	.	.	.	.	.	.	.	.	.	.
16.G\L	.	.	.	.	16b|</	.	16gg|>\	.	.	.	.	.	.	.	.	.	.	.
.	.	.	.	.	16b|</JJ	.	16gg|>\JJ	.	.	.	.	.	.	.	.	.	.	.
32G\JJk	.	.	.	.	.	.	.	.	.	.	.	.	.	.	.	.	.	.
8F#\L	4 2	.	4r	.	[4bt/	.	4ggT\	.	.	.	.	.	.	.	16r	.	16r	.
!	!	!	!	!	!	!	!	!	!	!	!	!	!	!	!	!LO:DY:b:t=pian	!	!LO:DY:b:t=pia&colon;
.	.	.	.	.	.	.	.	.	.	.	.	.	.	.	(32g\LLL	p	(32b\LLL	p
.	.	.	.	.	.	.	.	.	.	.	.	.	.	.	32a\J)	.	32cc\J)	.
16.F#\L	.	.	.	.	.	.	.	.	.	.	.	.	.	.	16g|>\	.	16b\	.
.	.	.	.	.	.	.	.	.	.	.	.	.	.	.	16g|>\JJ	.	16b\JJ	.
*	*	*	*	*	*	*	*	*	*	*	*	*	*	*	*custos:cc	*	*	*
32F#\JJk	.	.	.	.	.	.	.	.	.	.	.	.	.	.	.	.	.	.
!LO:LB:g=original	!	!	!	!	!LO:LB:g=original	!	!	!	!	!	!	!	!	!	!LO:LB:g=original	!	!	!
=-	=-	=-	=-	=-	=-	=-	=-	=-	=-	=-	=-	=-	=-	=-	=-	=-	=-	=-
!	!	!	!	!	!	!	!	!	!	!	!	!	!	!	!LO:TX:a:t=t	!	!LO:TX:a:t=t	!
8E\L	5	.	8g\L	.	16b/LL]	.	16gg|>\LL	.	.	.	.	.	.	.	[4g\	.	[4b\	.
.	.	.	.	.	(32b/L	.	(32gg\L	.	.	.	.	.	.	.	.	.	.	.
.	.	.	.	.	32cc/J)	.	32aa\J)	.	.	.	.	.	.	.	.	.	.	.
16.E\L	.	.	8g\	.	16cc|</	.	16gg|>\	.	.	.	.	.	.	.	.	.	.	.
.	.	.	.	.	16b|</JJ	.	16gg|>\JJ	.	.	.	.	.	.	.	.	.	.	.
32E\JJk	.	.	.	.	.	.	.	.	.	.	.	.	.	.	.	.	.	.
8D\L	6 4 3	.	8f#\	.	4bt/	.	4ggT\	.	.	.	.	.	.	.	16g\LL]	.	16b\LL]	.
.	.	.	.	.	.	.	.	.	.	.	.	.	.	.	(32g\L	.	(32b\L	.
.	.	.	.	.	.	.	.	.	.	.	.	.	.	.	32a\J)	.	32cc\J)	.
16.D\L	.	.	8f#\J	.	.	.	.	.	.	.	.	.	.	.	16g|>\	.	16b\	.
.	.	.	.	.	.	.	.	.	.	.	.	.	.	.	16g|>\JJ	.	16b\JJ	.
32D\JJk	.	.	.	.	.	.	.	.	.	.	.	.	.	.	.	.	.	.
!	!	!	!	!	!	!	!LO:LB:g=original	!	!	!	!	!	!	!	!	!	!LO:LB:g=original	!
=63	=63	=63	=63	=63	=63	=63	=63	=63	=63	=63	=63	=63	=63	=63	=63	=63	=63	=63
.	.	.	.	.	(<16qqa/LL	.	16qqcc/LL	.	.	.	.	.	.	.	.	.	.	.
.	.	.	.	.	16qqb/JJ	.	16qqdd/JJ	.	.	.	.	.	.	.	.	.	.	.
!	!	!LO:DY:b:t=for	!	!LO:DY:b:T=for	!	!	!	!LO:DY:b:t=for	!	!	!	!	!	!	!	!LO:DY:b:t=for	!	!LO:DY:b:t=fr
8C/L	6	f	8e\L	f	8.ccT\L)	.	8.eeT\L	f	1ryy	1ryy	.	.	.	.	(4a\	f	(4cc\	f
8AA/	.	.	8e\	.	.	.	.	.	.	.	.	.	.	.	.	.	.	.
.	.	.	.	.	32b\LL	.	32dd\LL	.	.	.	.	.	.	.	.	.	.	.
.	.	.	.	.	32a\JJJ	.	32cc\JJJ	.	.	.	.	.	.	.	.	.	.	.
8D/	6 4	.	8d\	.	8g/L	.	8b/L	.	.	.	.	.	.	.	8g\L)	.	8b\L)	.
8DD/J	7 3	.	8d\J	.	8f#t/J	.	8a/J	.	.	.	.	.	.	.	8d|>\J	.	8a|>\J	.
!	!	!	!LO:TX:a:t=d	!	!	!	!	!	!	!	!	!	!	!	!	!	!	!
2GG/	.	.	2d\	.	2g/	.	2g/	.	.	.	.	.	.	.	2B/	.	2g\	.
==	==	==	==;	==	==	==	==	==	==	==	==;	==	==;	==	==	==	==	==
*-	*-	*-	*-	*-	*-	*-	*-	*-	*-	*-	*-	*-	*-	*-	*-	*-	*-	*-
!!!system-decoration: [(s1,s2)][(s3,s4,s5,s6)][(s7,s8,s9)]s10
!!!RDF**kern: < = below
!!!RDF**kern: > = above
!!!RDF**kern: | = vertical stroke
!!!ENC: Filip Voros
!!!END: 2022-03-29
!!!ENC: Marta Chmielewska
!!!END: 2022-03-30
